; generated by Slic3r 1.2.9 on 2020-01-08 at 17:56:48

; external perimeters extrusion width = 0.40mm
; perimeters extrusion width = 0.67mm
; infill extrusion width = 0.67mm
; solid infill extrusion width = 0.67mm
; top infill extrusion width = 0.67mm

M190 S60 ; set bed temperature
M104 S200 ; set temperature
G28 ; home all axes
G1 Z5 F5000 ; lift nozzle

M109 S200 ; wait for temperature to be reached
G21 ; set units to millimeters
G90 ; use absolute coordinates
M82 ; use absolute distances for extrusion
G92 E0
G1 Z0.300 F2700.000
G1 E-2.00000 F2400.00000
G92 E0
G1 X43.139 Y53.205 F2700.000
G1 E2.00000 F2400.00000
G1 X43.887 Y52.640 E2.01810 F2700.000
G1 X44.553 Y52.215 E2.03332
G1 X45.382 Y51.776 E2.05143
G1 X46.248 Y51.411 E2.06955
G1 X47.141 Y51.122 E2.08766
G1 X48.056 Y50.912 E2.10578
G1 X48.986 Y50.783 E2.12389
G1 X49.606 Y50.743 E2.13586
G1 X130.113 Y50.737 E3.68886
G1 X131.014 Y50.783 E3.70625 F2700.000
G1 X131.795 Y50.886 E3.72146
G1 X132.405 Y51.008 E3.73346
G1 X133.308 Y51.256 E3.75151
G1 X134.051 Y51.527 E3.76677
G1 X134.903 Y51.917 E3.78484
G1 X135.720 Y52.381 E3.80298
G1 X136.240 Y52.728 E3.81504
G1 X136.862 Y53.206 E3.83017
G1 X137.559 Y53.836 E3.84828
G1 X138.039 Y54.342 E3.86174
G1 X138.582 Y55.002 E3.87822
G1 X139.037 Y55.652 E3.89354
G1 X139.397 Y56.251 E3.90701
G1 X139.786 Y57.017 E3.92359
G1 X140.090 Y57.749 E3.93887
G1 X140.379 Y58.644 E3.95702
G1 X140.527 Y59.251 E3.96907
G1 X140.682 Y60.169 E3.98704
G1 X140.757 Y61.103 E4.00511
G1 X140.764 Y77.538 E4.32214
G1 X140.730 Y78.363 E4.33807
G1 X140.663 Y78.976 E4.34996
G1 X140.525 Y79.757 E4.36527
G1 X140.289 Y80.664 E4.38334
G1 X140.088 Y81.256 E4.39541
G1 X139.788 Y81.980 E4.41051
G1 X139.512 Y82.540 E4.42257
G1 X139.038 Y83.347 E4.44061
G1 X138.587 Y83.991 E4.45579
G1 X138.196 Y84.478 E4.46784
G1 X137.665 Y85.058 E4.48300
G1 X137.212 Y85.491 E4.49508
G1 X136.612 Y85.994 E4.51019
G1 X136.113 Y86.361 E4.52214
G1 X135.320 Y86.858 E4.54019
G1 X134.618 Y87.224 E4.55547
G1 X133.911 Y87.528 E4.57032
G1 X133.764 Y87.742 E4.57531
G1 X133.763 Y118.613 E5.17083
G1 X133.716 Y119.516 E5.18827
G1 X133.589 Y120.439 E5.20624
G1 X133.417 Y121.214 E5.22156
G1 X133.140 Y122.112 E5.23968
G1 X132.788 Y122.980 E5.25776
G1 X132.511 Y123.541 E5.26982
G1 X132.039 Y124.345 E5.28781
G1 X131.587 Y124.991 E5.30301
G1 X131.197 Y125.477 E5.31503
G1 X130.665 Y126.058 E5.33024
G1 X130.210 Y126.493 E5.34238
G1 X129.490 Y127.088 E5.36040
G1 X128.846 Y127.539 E5.37556
G1 X128.038 Y128.013 E5.39362
G1 X127.189 Y128.416 E5.41176
G1 X126.607 Y128.642 E5.42381
G1 X125.858 Y128.878 E5.43895
G1 X124.943 Y129.088 E5.45705
G1 X124.326 Y129.183 E5.46909
G1 X123.397 Y129.257 E5.48709
G1 X56.606 Y129.257 E6.77549
G1 X55.669 Y129.182 E6.79363
G1 X54.744 Y129.026 E6.81171
G1 X54.287 Y128.917 E6.82078
G1 X53.694 Y128.744 E6.83268
G1 X52.813 Y128.417 E6.85083
G1 X51.961 Y128.012 E6.86903
G1 X51.150 Y127.536 E6.88715
G1 X50.386 Y126.993 E6.90524
G1 X49.671 Y126.384 E6.92336
G1 X49.114 Y125.827 E6.93854
G1 X48.803 Y125.477 E6.94759
G1 X48.226 Y124.736 E6.96571
G1 X47.715 Y123.947 E6.98383
G1 X47.276 Y123.117 E7.00195
G1 X46.911 Y122.253 E7.02005
G1 X46.622 Y121.359 E7.03816
G1 X46.412 Y120.444 E7.05628
G1 X46.283 Y119.513 E7.07440
G1 X46.236 Y118.538 E7.09324
G1 X46.236 Y87.742 E7.68730
G1 X46.089 Y87.528 E7.69230
G1 X45.383 Y87.224 E7.70712
G1 X44.681 Y86.859 E7.72238
G1 X43.953 Y86.405 E7.73894
G1 X43.387 Y85.994 E7.75243
G1 X42.784 Y85.487 E7.76763
G1 X42.335 Y85.058 E7.77961
G1 X41.803 Y84.478 E7.79480
G1 X41.414 Y83.993 E7.80677
G1 X40.962 Y83.347 E7.82199
G1 X40.640 Y82.817 E7.83395
G1 X40.275 Y82.116 E7.84920
G1 X40.026 Y81.550 E7.86113
G1 X39.757 Y80.809 E7.87633
G1 X39.583 Y80.213 E7.88831
G1 X39.412 Y79.442 E7.90355
G1 X39.283 Y78.515 E7.92160
G1 X39.236 Y77.537 E7.94049
G1 X39.241 Y61.204 E8.25556
G1 X39.208 Y61.086 E8.25791
G1 X38.648 Y60.185 E8.27839
G1 X40.417 Y56.597 E8.35556
G1 X40.640 Y56.183 E8.36463
G1 X40.961 Y55.654 E8.37657
G1 X41.414 Y55.007 E8.39180
G1 X42.013 Y54.283 E8.40991
G1 X42.442 Y53.835 E8.42189
G1 X43.093 Y53.244 E8.43885
G1 X43.362 Y53.565 F2700.000
G1 X44.008 Y53.066 E8.45459 F2700.000
G1 X44.766 Y52.576 E8.47201
G1 X45.563 Y52.154 E8.48940
G1 X46.395 Y51.803 E8.50682
G1 X47.254 Y51.526 E8.52423
G1 X48.134 Y51.324 E8.54164
G1 X49.028 Y51.200 E8.55905
G1 X49.620 Y51.161 E8.57049
G1 X130.035 Y51.155 E10.12172
G1 X130.831 Y51.188 E10.13709 F2700.000
G1 X131.420 Y51.252 E10.14851
G1 X132.171 Y51.385 E10.16322
G1 X133.043 Y51.612 E10.18061
G1 X133.606 Y51.803 E10.19207
G1 X134.434 Y52.153 E10.20941
G1 X135.232 Y52.575 E10.22682
G1 X135.877 Y52.986 E10.24158
G1 X136.596 Y53.530 E10.25898
G1 X137.041 Y53.920 E10.27040
G1 X137.674 Y54.562 E10.28778
G1 X138.163 Y55.144 E10.30246
G1 X138.516 Y55.626 E10.31397
G1 X138.994 Y56.387 E10.33131
G1 X139.405 Y57.190 E10.34870
G1 X139.698 Y57.896 E10.36345
G1 X139.975 Y58.756 E10.38089
G1 X140.117 Y59.336 E10.39241
G1 X140.266 Y60.219 E10.40968
G1 X140.339 Y61.117 E10.42706
G1 X140.345 Y77.535 E10.74377
G1 X140.312 Y78.331 E10.75913
G1 X140.248 Y78.917 E10.77049
G1 X140.115 Y79.671 E10.78527
G1 X139.888 Y80.542 E10.80264
G1 X139.696 Y81.109 E10.81417
G1 X139.407 Y81.807 E10.82875
G1 X139.142 Y82.342 E10.84027
G1 X138.687 Y83.118 E10.85761
G1 X138.252 Y83.740 E10.87227
G1 X137.878 Y84.206 E10.88378
G1 X137.365 Y84.765 E10.89842
G1 X136.933 Y85.179 E10.90996
G1 X136.240 Y85.752 E10.92730
G1 X135.618 Y86.188 E10.94197
G1 X134.840 Y86.644 E10.95936
G1 X134.308 Y86.906 E10.97080
G1 X133.492 Y87.241 E10.98782
G1 X133.345 Y87.455 E10.99282
G1 X133.345 Y118.606 E11.59373
G1 X133.300 Y119.475 E11.61051
G1 X133.201 Y120.225 E11.62511
G1 X133.084 Y120.812 E11.63666
G1 X132.846 Y121.677 E11.65397
G1 X132.534 Y122.517 E11.67123
G1 X132.209 Y123.215 E11.68610
G1 X131.922 Y123.737 E11.69759
G1 X131.436 Y124.489 E11.71486
G1 X130.971 Y125.096 E11.72960
G1 X130.365 Y125.765 E11.74702
G1 X129.931 Y126.181 E11.75862
G1 X129.239 Y126.753 E11.77594
G1 X128.617 Y127.188 E11.79057
G1 X127.841 Y127.643 E11.80793
G1 X127.025 Y128.031 E11.82536
G1 X126.468 Y128.247 E11.83688
G1 X125.745 Y128.475 E11.85150
G1 X124.866 Y128.676 E11.86889
G1 X124.276 Y128.767 E11.88040
G1 X123.383 Y128.839 E11.89770
G1 X56.619 Y128.839 E13.18557
G1 X55.719 Y128.766 E13.20300
G1 X54.830 Y128.616 E13.22038
G1 X54.391 Y128.511 E13.22909
G1 X53.825 Y128.346 E13.24047
G1 X52.977 Y128.032 E13.25791
G1 X52.158 Y127.643 E13.27540
G1 X51.379 Y127.186 E13.29282
G1 X50.645 Y126.663 E13.31021
G1 X49.957 Y126.078 E13.32762
G1 X49.420 Y125.541 E13.34228
G1 X49.121 Y125.204 E13.35097
G1 X48.566 Y124.492 E13.36838
G1 X48.076 Y123.734 E13.38580
G1 X47.653 Y122.936 E13.40322
G1 X47.469 Y122.524 E13.41191
G1 X47.255 Y121.972 E13.42334
G1 X46.989 Y121.111 E13.44073
G1 X46.800 Y120.228 E13.45815
G1 X46.688 Y119.330 E13.47560
G1 X46.655 Y118.535 E13.49094
G1 X46.655 Y87.455 E14.09048
G1 X46.508 Y87.241 E14.09548
G1 X45.695 Y86.907 E14.11245
G1 X45.161 Y86.644 E14.12393
G1 X44.382 Y86.187 E14.14135
G1 X43.758 Y85.750 E14.15604
G1 X43.296 Y85.380 E14.16747
G1 X42.735 Y84.866 E14.18215
G1 X42.325 Y84.437 E14.19359
G1 X41.836 Y83.855 E14.20824
G1 X41.485 Y83.376 E14.21970
G1 X41.076 Y82.735 E14.23437
G1 X40.791 Y82.214 E14.24583
G1 X40.415 Y81.394 E14.26323
G1 X40.155 Y80.679 E14.27791
G1 X39.989 Y80.109 E14.28936
G1 X39.824 Y79.365 E14.30406
G1 X39.700 Y78.474 E14.32142
G1 X39.655 Y77.535 E14.33955
G1 X39.662 Y61.088 E14.65681
G1 X39.630 Y60.971 E14.65916
G1 X39.126 Y60.161 E14.67755
G1 X40.791 Y56.786 E14.75014
G1 X41.005 Y56.388 E14.75886
G1 X41.312 Y55.882 E14.77027
G1 X41.749 Y55.258 E14.78497
G1 X42.325 Y54.563 E14.80238
G1 X42.735 Y54.134 E14.81382
G1 X43.316 Y53.603 E14.82901
G1 X43.585 Y53.924 F2700.000
G1 X44.252 Y53.407 E14.84529 F2700.000
G1 X44.980 Y52.936 E14.86200
G1 X45.745 Y52.532 E14.87870
G1 X46.543 Y52.195 E14.89541
G1 X47.367 Y51.929 E14.91211
G1 X48.211 Y51.736 E14.92882
G1 X49.069 Y51.617 E14.94552
G1 X49.633 Y51.580 E14.95643
G1 X130.099 Y51.574 E16.50864
G1 X130.931 Y51.617 E16.52471 F2700.000
G1 X131.659 Y51.713 E16.53886
G1 X132.215 Y51.824 E16.54980
G1 X133.047 Y52.053 E16.56645
G1 X133.739 Y52.304 E16.58064
G1 X134.524 Y52.664 E16.59731
G1 X135.278 Y53.092 E16.61403
G1 X135.751 Y53.409 E16.62502
G1 X136.330 Y53.854 E16.63911
G1 X136.973 Y54.434 E16.65581
G1 X137.408 Y54.894 E16.66802
G1 X137.912 Y55.505 E16.68330
G1 X138.336 Y56.110 E16.69754
G1 X138.663 Y56.654 E16.70979
G1 X139.023 Y57.363 E16.72513
G1 X139.306 Y58.044 E16.73935
G1 X139.572 Y58.869 E16.75608
G1 X139.707 Y59.422 E16.76706
G1 X139.850 Y60.270 E16.78364
G1 X139.920 Y61.131 E16.80031
G1 X139.927 Y77.533 E17.11671
G1 X139.883 Y78.432 E17.13406
G1 X139.787 Y79.157 E17.14817
G1 X139.676 Y79.717 E17.15918
G1 X139.448 Y80.546 E17.17577
G1 X139.197 Y81.236 E17.18993
G1 X138.970 Y81.752 E17.20081
G1 X138.629 Y82.407 E17.21506
G1 X138.337 Y82.889 E17.22593
G1 X137.838 Y83.591 E17.24254
G1 X137.363 Y84.157 E17.25680
G1 X136.972 Y84.566 E17.26771
G1 X136.431 Y85.062 E17.28186
G1 X135.748 Y85.593 E17.29856
G1 X135.276 Y85.909 E17.30952
G1 X134.525 Y86.335 E17.32617
G1 X133.860 Y86.646 E17.34033
G1 X133.083 Y86.935 E17.35632
G1 X132.927 Y87.154 E17.36151
G1 X132.926 Y118.599 E17.96810
G1 X132.883 Y119.434 E17.98422
G1 X132.787 Y120.157 E17.99829
G1 X132.676 Y120.717 E18.00930
G1 X132.447 Y121.547 E18.02591
G1 X132.149 Y122.353 E18.04248
G1 X131.835 Y123.026 E18.05681
G1 X131.562 Y123.524 E18.06777
G1 X131.095 Y124.245 E18.08434
G1 X130.647 Y124.830 E18.09855
G1 X130.066 Y125.472 E18.11526
G1 X129.652 Y125.869 E18.12632
G1 X128.987 Y126.418 E18.14294
G1 X128.388 Y126.837 E18.15705
G1 X127.643 Y127.274 E18.17371
G1 X126.860 Y127.646 E18.19043
G1 X126.329 Y127.852 E18.20142
G1 X125.633 Y128.071 E18.21551
G1 X124.789 Y128.264 E18.23220
G1 X124.227 Y128.351 E18.24318
G1 X123.369 Y128.420 E18.25978
G1 X56.633 Y128.420 E19.54712
G1 X55.769 Y128.350 E19.56384
G1 X54.916 Y128.206 E19.58052
G1 X53.955 Y127.948 E19.59973
G1 X53.142 Y127.646 E19.61646
G1 X52.356 Y127.273 E19.63324
G1 X51.608 Y126.835 E19.64995
G1 X50.903 Y126.334 E19.66663
G1 X50.244 Y125.773 E19.68334
G1 X49.726 Y125.255 E19.69747
G1 X49.438 Y124.931 E19.70581
G1 X48.907 Y124.248 E19.72252
G1 X48.436 Y123.520 E19.73924
G1 X48.031 Y122.755 E19.75594
G1 X47.650 Y121.833 E19.77518
G1 X47.395 Y121.007 E19.79187
G1 X47.213 Y120.159 E19.80858
G1 X47.105 Y119.298 E19.82533
G1 X47.073 Y118.533 E19.84010
G1 X47.073 Y87.154 E20.44540
G1 X46.917 Y86.935 E20.45059
G1 X46.141 Y86.646 E20.46657
G1 X45.477 Y86.337 E20.48069
G1 X44.979 Y86.063 E20.49166
G1 X44.252 Y85.593 E20.50835
G1 X43.670 Y85.147 E20.52249
G1 X43.245 Y84.774 E20.53341
G1 X42.637 Y84.158 E20.55011
G1 X42.166 Y83.597 E20.56424
G1 X41.831 Y83.140 E20.57517
G1 X41.437 Y82.521 E20.58931
G1 X41.164 Y82.025 E20.60024
G1 X40.804 Y81.238 E20.61694
G1 X40.553 Y80.549 E20.63108
G1 X40.395 Y80.005 E20.64201
G1 X40.236 Y79.288 E20.65618
G1 X40.117 Y78.433 E20.67283
G1 X40.073 Y77.533 E20.69021
G1 X40.073 Y61.467 E21.00012
G1 X40.087 Y60.983 E21.00947
G1 X40.054 Y60.860 E21.01191
G1 X39.605 Y60.137 E21.02833
G1 X41.164 Y56.975 E21.09634
G1 X41.663 Y56.111 E21.11558
G1 X42.085 Y55.510 E21.12976
G1 X42.439 Y55.068 E21.14067
G1 X42.934 Y54.528 E21.15481
G1 X43.540 Y53.964 E21.17078
G1 X43.816 Y54.278 F2700.000
G1 X44.261 Y53.920 E21.18181 F2700.000
G1 X44.944 Y53.448 E21.19781
G1 X45.664 Y53.038 E21.21380
G1 X46.419 Y52.692 E21.22982
G1 X47.199 Y52.414 E21.24580
G1 X48.002 Y52.204 E21.26181
G1 X48.820 Y52.066 E21.27781
G1 X49.647 Y51.999 E21.29381
G1 X130.031 Y51.992 E22.84443
G1 X130.767 Y52.023 E22.85865 F2700.000
G1 X131.590 Y52.126 E22.87465
G1 X132.120 Y52.231 E22.88506
G1 X132.917 Y52.451 E22.90101
G1 X133.582 Y52.693 E22.91467
G1 X134.335 Y53.038 E22.93063
G1 X135.056 Y53.448 E22.94665
G1 X135.507 Y53.749 E22.95711
G1 X136.065 Y54.177 E22.97067
G1 X136.680 Y54.734 E22.98667
G1 X137.093 Y55.170 E22.99826
G1 X137.577 Y55.757 E23.01293
G1 X138.051 Y56.442 E23.02899
G1 X138.405 Y57.056 E23.04268
G1 X138.760 Y57.804 E23.05865
G1 X138.956 Y58.309 E23.06909
G1 X139.168 Y58.982 E23.08271
G1 X139.353 Y59.789 E23.09868
G1 X139.441 Y60.385 E23.11029
G1 X139.501 Y61.145 E23.12500
G1 X139.508 Y77.531 E23.44109
G1 X139.466 Y78.391 E23.45769
G1 X139.353 Y79.207 E23.47359
G1 X139.199 Y79.902 E23.48733
G1 X139.028 Y80.479 E23.49894
G1 X138.762 Y81.190 E23.51359
G1 X138.461 Y81.836 E23.52733
G1 X138.201 Y82.310 E23.53776
G1 X137.754 Y83.003 E23.55366
G1 X137.323 Y83.565 E23.56733
G1 X136.968 Y83.969 E23.57769
G1 X136.468 Y84.469 E23.59135
G1 X135.836 Y85.006 E23.60733
G1 X135.403 Y85.323 E23.61770
G1 X134.703 Y85.763 E23.63364
G1 X134.074 Y86.091 E23.64732
G1 X133.310 Y86.413 E23.66333
G1 X132.670 Y86.627 E23.67634
G1 X132.508 Y86.848 E23.68163
G1 X132.507 Y118.593 E24.29398
G1 X132.466 Y119.393 E24.30943
G1 X132.374 Y120.089 E24.32298
G1 X132.268 Y120.622 E24.33346
G1 X132.049 Y121.417 E24.34937
G1 X131.763 Y122.189 E24.36525
G1 X131.461 Y122.837 E24.37903
G1 X131.201 Y123.310 E24.38946
G1 X130.755 Y124.001 E24.40534
G1 X130.323 Y124.564 E24.41901
G1 X129.766 Y125.179 E24.43502
G1 X129.372 Y125.556 E24.44554
G1 X128.736 Y126.082 E24.46146
G1 X128.159 Y126.486 E24.47504
G1 X127.446 Y126.904 E24.49100
G1 X126.695 Y127.260 E24.50702
G1 X126.191 Y127.457 E24.51747
G1 X125.520 Y127.668 E24.53103
G1 X124.712 Y127.852 E24.54702
G1 X124.177 Y127.935 E24.55747
G1 X123.355 Y128.001 E24.57337
G1 X56.647 Y128.001 E25.86018
G1 X55.819 Y127.934 E25.87619
G1 X55.003 Y127.796 E25.89217
G1 X54.085 Y127.550 E25.91050
G1 X53.306 Y127.261 E25.92652
G1 X52.553 Y126.904 E25.94259
G1 X51.837 Y126.484 E25.95860
G1 X51.162 Y126.005 E25.97458
G1 X50.530 Y125.467 E25.99058
G1 X50.032 Y124.968 E26.00419
G1 X49.756 Y124.659 E26.01218
G1 X49.247 Y124.004 E26.02818
G1 X48.797 Y123.307 E26.04419
G1 X48.409 Y122.573 E26.06019
G1 X48.045 Y121.694 E26.07855
G1 X47.801 Y120.903 E26.09453
G1 X47.626 Y120.091 E26.11054
G1 X47.523 Y119.266 E26.12658
G1 X47.492 Y118.531 E26.14077
G1 X47.492 Y86.848 E26.75193
G1 X47.330 Y86.627 E26.75722
G1 X46.690 Y86.413 E26.77025
G1 X45.927 Y86.091 E26.78622
G1 X45.298 Y85.764 E26.79989
G1 X44.597 Y85.323 E26.81587
G1 X43.936 Y84.823 E26.83186
G1 X43.531 Y84.468 E26.84224
G1 X43.032 Y83.969 E26.85585
G1 X42.677 Y83.564 E26.86624
G1 X42.177 Y82.903 E26.88224
G1 X41.797 Y82.308 E26.89586
G1 X41.538 Y81.835 E26.90625
G1 X41.193 Y81.082 E26.92225
G1 X40.951 Y80.418 E26.93586
G1 X40.800 Y79.901 E26.94626
G1 X40.647 Y79.211 E26.95990
G1 X40.534 Y78.391 E26.97585
G1 X40.492 Y77.530 E26.99248
G1 X40.492 Y61.469 E27.30230
G1 X40.513 Y60.881 E27.31365
G1 X40.482 Y60.754 E27.31619
G1 X40.084 Y60.114 E27.33072
G1 X41.538 Y57.165 E27.39415
G1 X41.948 Y56.444 E27.41015
G1 X42.248 Y55.995 E27.42056
G1 X42.756 Y55.341 E27.43654
G1 X43.233 Y54.821 E27.45016
G1 X43.771 Y54.318 E27.46436
G1 X44.047 Y54.633 F2700.000
G1 X44.512 Y54.255 E27.47592 F2700.000
G1 X45.165 Y53.804 E27.49122
G1 X45.853 Y53.412 E27.50651
G1 X46.575 Y53.081 E27.52182
G1 X47.321 Y52.815 E27.53709
G1 X48.089 Y52.614 E27.55240
G1 X48.870 Y52.482 E27.56769
G1 X49.661 Y52.417 E27.58299
G1 X130.086 Y52.412 E29.13440
G1 X130.849 Y52.451 E29.14915 F2700.000
G1 X131.522 Y52.539 E29.16224
G1 X132.024 Y52.639 E29.17212
G1 X132.787 Y52.849 E29.18737
G1 X133.426 Y53.082 E29.20050
G1 X134.145 Y53.411 E29.21576
G1 X134.835 Y53.804 E29.23107
G1 X135.263 Y54.090 E29.24100
G1 X135.799 Y54.501 E29.25403
G1 X136.387 Y55.033 E29.26932
G1 X136.779 Y55.447 E29.28032
G1 X137.242 Y56.008 E29.29436
G1 X137.695 Y56.663 E29.30971
G1 X138.036 Y57.254 E29.32287
G1 X138.375 Y57.969 E29.33813
G1 X138.561 Y58.448 E29.34805
G1 X138.765 Y59.094 E29.36113
G1 X138.941 Y59.866 E29.37640
G1 X139.025 Y60.430 E29.38740
G1 X139.083 Y61.159 E29.40150
G1 X139.089 Y77.529 E29.71727
G1 X139.049 Y78.349 E29.73313
G1 X138.942 Y79.130 E29.74833
G1 X138.794 Y79.798 E29.76153
G1 X138.632 Y80.345 E29.77252
G1 X138.377 Y81.026 E29.78656
G1 X138.088 Y81.647 E29.79976
G1 X137.696 Y82.335 E29.81504
G1 X137.246 Y82.986 E29.83031
G1 X136.925 Y83.387 E29.84022
G1 X136.467 Y83.886 E29.85328
