; generated by Slic3r 1.2.9 on 2020-01-04 at 21:09:05

; external perimeters extrusion width = 0.40mm
; perimeters extrusion width = 0.67mm
; infill extrusion width = 0.67mm
; solid infill extrusion width = 0.67mm
; top infill extrusion width = 0.67mm

M190 S60 ; set bed temperature
M104 S200 ; set temperature
G28 ; home all axes
G1 Z5 F5000 ; lift nozzle

M109 S200 ; wait for temperature to be reached
G21 ; set units to millimeters
G90 ; use absolute coordinates
M82 ; use absolute distances for extrusion
G92 E0
G1 Z0.300 F2700.000
G1 E-2.00000 F2400.00000
G92 E0
G1 X11.038 Y11.038 F2700.000
G1 E2.00000 F2400.00000
G1 X12.085 Y9.991 E2.03001 F2700.000
G1 X14.625 Y8.938 E2.08572
G1 X165.375 Y8.938 E5.14039
G1 X167.915 Y9.991 E5.19610
G1 X170.009 Y12.085 E5.25611 F2700.000
G1 X171.062 Y14.625 E5.31183
G1 X171.062 Y165.375 E8.36649
G1 X170.009 Y167.915 E8.42221
G1 X167.915 Y170.009 E8.48222
G1 X165.375 Y171.062 E8.53794
G1 X14.625 Y171.062 E11.59260
G1 X12.085 Y170.009 E11.64832
G1 X9.991 Y167.915 E11.70833
G1 X8.938 Y165.375 E11.76404
G1 X8.938 Y14.625 E14.81871
G1 X9.991 Y12.085 E14.87442
G1 X10.995 Y11.080 E14.90321
G1 X11.292 Y11.376 F2700.000
G1 X12.322 Y10.346 E14.93275 F2700.000
G1 X14.709 Y9.357 E14.98509
G1 X165.291 Y9.357 E18.03637
G1 X167.678 Y10.346 E18.08871 F2700.000
G1 X169.654 Y12.322 E18.14535
G1 X170.643 Y14.709 E18.19769
G1 X170.643 Y165.291 E21.24897
G1 X169.654 Y167.678 E21.30131
G1 X167.678 Y169.654 E21.35795
G1 X165.291 Y170.643 E21.41029
G1 X14.709 Y170.643 E24.46157
G1 X12.322 Y169.654 E24.51391
G1 X10.346 Y167.678 E24.57055
G1 X9.357 Y165.291 E24.62289
G1 X9.357 Y14.709 E27.67418
G1 X10.346 Y12.322 E27.72651
G1 X11.249 Y11.419 E27.75240
G1 X11.545 Y11.715 F2700.000
G1 X12.559 Y10.701 E27.78146 F2700.000
G1 X14.792 Y9.776 E27.83042
G1 X165.208 Y9.776 E30.87833
G1 X167.440 Y10.701 E30.92730
G1 X169.299 Y12.559 E30.98056 F2700.000
G1 X170.224 Y14.792 E31.02952
G1 X170.224 Y165.208 E34.07743
G1 X169.299 Y167.440 E34.12639
G1 X167.440 Y169.299 E34.17965
G1 X165.208 Y170.224 E34.22861
G1 X14.792 Y170.224 E37.27652
G1 X12.559 Y169.299 E37.32548
G1 X10.701 Y167.440 E37.37874
G1 X9.776 Y165.208 E37.42771
G1 X9.776 Y14.792 E40.47562
G1 X10.701 Y12.559 E40.52458
G1 X11.503 Y11.757 E40.54756
G1 X11.799 Y12.054 F2700.000
G1 X12.797 Y11.056 E40.57615 F2700.000
G1 X14.875 Y10.195 E40.62173
G1 X165.125 Y10.195 E43.66627
G1 X167.203 Y11.056 E43.71185 F2700.000
G1 X168.944 Y12.797 E43.76174
G1 X169.805 Y14.875 E43.80732
G1 X169.805 Y165.125 E46.85186
G1 X168.944 Y167.203 E46.89744
G1 X167.203 Y168.944 E46.94732
G1 X165.125 Y169.805 E46.99291
G1 X14.875 Y169.805 E50.03744
G1 X12.797 Y168.944 E50.08303
G1 X11.056 Y167.203 E50.13291
G1 X10.195 Y165.125 E50.17850
G1 X10.195 Y14.875 E53.22303
G1 X11.056 Y12.797 E53.26862
G1 X11.757 Y12.096 E53.28869
G1 X12.053 Y12.392 F2700.000
G1 X13.034 Y11.411 E53.31681 F2700.000
G1 X14.958 Y10.614 E53.35902
G1 X165.042 Y10.614 E56.40018
G1 X166.966 Y11.411 E56.44239
G1 X168.589 Y13.034 E56.48889 F2700.000
G1 X169.386 Y14.958 E56.53110
G1 X169.386 Y165.042 E59.57226
G1 X168.589 Y166.966 E59.61447
G1 X166.966 Y168.589 E59.66097
G1 X165.042 Y169.386 E59.70318
G1 X14.958 Y169.386 E62.74434
G1 X13.034 Y168.589 E62.78655
G1 X11.411 Y166.966 E62.83305
G1 X10.614 Y165.042 E62.87526
G1 X10.614 Y14.958 E65.91642
G1 X11.411 Y13.034 E65.95863
G1 X12.010 Y12.435 E65.97580
G1 X12.307 Y12.731 F2700.000
G1 X13.271 Y11.766 E66.00345 F2700.000
G1 X15.042 Y11.033 E66.04228
G1 X164.958 Y11.033 E69.08006
G1 X166.729 Y11.766 E69.11889 F2700.000
G1 X168.234 Y13.271 E69.16202
G1 X168.967 Y15.042 E69.20085
G1 X168.967 Y164.958 E72.23863
G1 X168.234 Y166.729 E72.27746
G1 X166.729 Y168.234 E72.32059
G1 X164.958 Y168.967 E72.35943
G1 X15.042 Y168.967 E75.39721
G1 X13.271 Y168.234 E75.43604
G1 X11.766 Y166.729 E75.47917
G1 X11.033 Y164.958 E75.51800
G1 X11.033 Y15.042 E78.55578
G1 X11.766 Y13.271 E78.59461
G1 X12.264 Y12.773 E78.60888
G1 X12.560 Y13.070 F2700.000
G1 X13.509 Y12.121 E78.63605 F2700.000
G1 X15.125 Y11.452 E78.67151
G1 X164.875 Y11.452 E81.70591
G1 X166.491 Y12.121 E81.74137
G1 X167.879 Y13.509 E81.78112 F2700.000
G1 X168.548 Y15.125 E81.81658
G1 X168.548 Y164.875 E84.85098
G1 X167.879 Y166.491 E84.88643
G1 X166.491 Y167.879 E84.92619
G1 X164.875 Y168.548 E84.96164
G1 X15.125 Y168.548 E87.99605
G1 X13.509 Y167.879 E88.03150
G1 X12.121 Y166.491 E88.07126
G1 X11.452 Y164.875 E88.10671
G1 X11.452 Y15.125 E91.14111
G1 X12.121 Y13.509 E91.17657
G1 X12.518 Y13.112 E91.18794
G1 X12.814 Y13.408 F2700.000
G1 X13.746 Y12.476 E91.21463 F2700.000
G1 X15.208 Y11.871 E91.24671
G1 X164.792 Y11.871 E94.27774
G1 X166.254 Y12.476 E94.30982 F2700.000
G1 X167.524 Y13.746 E94.34620
G1 X168.129 Y15.208 E94.37827
G1 X168.129 Y164.792 E97.40930
G1 X167.524 Y166.254 E97.44138
G1 X166.254 Y167.524 E97.47776
G1 X164.792 Y168.129 E97.50983
G1 X15.208 Y168.129 E100.54086
G1 X13.746 Y167.524 E100.57294
G1 X12.476 Y166.254 E100.60932
G1 X11.871 Y164.792 E100.64140
G1 X11.871 Y15.208 E103.67242
G1 X12.476 Y13.746 E103.70450
G1 X12.772 Y13.451 E103.71296
G1 X13.068 Y13.747 F2700.000
G1 X13.983 Y12.832 E103.73919 F2700.000
G1 X15.292 Y12.290 E103.76789
G1 X164.708 Y12.290 E106.79554
G1 X166.017 Y12.832 E106.82424
G1 X167.168 Y13.983 E106.85724 F2700.000
G1 X167.710 Y15.292 E106.88595
G1 X167.710 Y164.708 E109.91360
G1 X167.168 Y166.017 E109.94230
G1 X166.017 Y167.168 E109.97530
G1 X164.708 Y167.710 E110.00400
G1 X15.292 Y167.710 E113.03165
G1 X13.983 Y167.168 E113.06035
G1 X12.832 Y166.017 E113.09335
G1 X12.290 Y164.708 E113.12205
G1 X12.290 Y15.292 E116.14970
G1 X12.832 Y13.983 E116.17841
G1 X13.026 Y13.789 E116.18396
G1 X13.322 Y14.085 F2700.000
G1 X14.220 Y13.187 E116.20972 F2700.000
G1 X15.375 Y12.708 E116.23504
G1 X164.625 Y12.708 E119.25932
G1 X165.780 Y13.187 E119.28464 F2700.000
G1 X166.813 Y14.220 E119.31427
G1 X167.292 Y15.375 E119.33959
G1 X167.292 Y164.625 E122.36386
G1 X166.813 Y165.780 E122.38919
G1 X165.780 Y166.813 E122.41881
G1 X164.625 Y167.292 E122.44414
G1 X15.375 Y167.292 E125.46841
G1 X14.220 Y166.813 E125.49374
G1 X13.187 Y165.780 E125.52336
G1 X12.708 Y164.625 E125.54868
G1 X12.708 Y15.375 E128.57296
G1 X13.187 Y14.220 E128.59828
G1 X13.279 Y14.128 E128.60094
G1 X13.575 Y14.424 F2700.000
G1 X14.458 Y13.542 E128.62622 F2700.000
G1 X15.458 Y13.127 E128.64817
G1 X164.542 Y13.127 E131.66906
G1 X165.542 Y13.542 E131.69101
G1 X166.458 Y14.458 E131.71726 F2700.000
G1 X166.873 Y15.458 E131.73921
G1 X166.873 Y164.542 E134.76011
G1 X166.458 Y165.542 E134.78205
G1 X165.542 Y166.458 E134.80830
G1 X164.542 Y166.873 E134.83025
G1 X15.458 Y166.873 E137.85115
G1 X14.458 Y166.458 E137.87309
G1 X13.542 Y165.542 E137.89934
G1 X13.127 Y164.542 E137.92129
G1 X13.127 Y15.458 E140.94219
G1 X13.537 Y14.469 E140.96389
G1 X13.897 Y14.695 F2700.000
G1 X14.695 Y13.897 E140.98676 F2700.000
G1 X15.542 Y13.546 E141.00533
G1 X164.458 Y13.546 E144.02285
G1 X165.305 Y13.897 E144.04142 F2700.000
G1 X166.103 Y14.695 E144.06429
G1 X166.454 Y15.542 E144.08286
G1 X166.454 Y164.458 E147.10038
G1 X166.103 Y165.305 E147.11895
G1 X165.305 Y166.103 E147.14182
G1 X164.458 Y166.454 E147.16040
G1 X15.542 Y166.454 E150.17792
G1 X14.695 Y166.103 E150.19649
G1 X13.897 Y165.305 E150.21936
G1 X13.546 Y164.458 E150.23793
G1 X13.546 Y15.542 E153.25545
G1 X13.874 Y14.750 E153.27281
G1 X14.252 Y14.932 F2700.000
G1 X14.932 Y14.252 E153.29230 F2700.000
G1 X15.625 Y13.965 E153.30749
G1 X164.375 Y13.965 E156.32164
G1 X165.068 Y14.252 E156.33683
G1 X165.748 Y14.932 E156.35633 F2700.000
G1 X166.035 Y15.625 E156.37152
G1 X166.035 Y164.375 E159.38567
G1 X165.748 Y165.068 E159.40086
G1 X165.068 Y165.748 E159.42035
G1 X164.375 Y166.035 E159.43555
G1 X15.625 Y166.035 E162.44969
G1 X14.932 Y165.748 E162.46489
G1 X14.252 Y165.068 E162.48438
G1 X13.965 Y164.375 E162.49958
G1 X13.965 Y15.625 E165.51372
G1 X14.229 Y14.988 E165.52770
G1 X14.607 Y15.170 F2700.000
G1 X15.170 Y14.607 E165.54382 F2700.000
G1 X15.708 Y14.384 E165.55564
G1 X164.292 Y14.384 E168.56640
G1 X164.830 Y14.607 E168.57822 F2700.000
G1 X165.393 Y15.170 E168.59434
G1 X165.616 Y15.708 E168.60616
G1 X165.616 Y164.292 E171.61692
G1 X165.393 Y164.830 E171.62874
G1 X164.830 Y165.393 E171.64486
G1 X164.292 Y165.616 E171.65668
G1 X15.708 Y165.616 E174.66744
G1 X15.170 Y165.393 E174.67926
G1 X14.607 Y164.830 E174.69538
G1 X14.384 Y164.292 E174.70720
G1 X14.384 Y15.708 E177.71797
G1 X14.584 Y15.225 E177.72857
G1 X14.962 Y15.407 F2700.000
G1 X15.407 Y14.962 E177.74131 F2700.000
G1 X15.792 Y14.803 E177.74975
G1 X164.208 Y14.803 E180.75714
G1 X164.593 Y14.962 E180.76558
G1 X165.038 Y15.407 E180.77832 F2700.000
G1 X165.197 Y15.792 E180.78676
G1 X165.197 Y164.208 E183.79415
G1 X165.038 Y164.593 E183.80260
G1 X164.593 Y165.038 E183.81534
G1 X164.208 Y165.197 E183.82378
G1 X15.792 Y165.197 E186.83117
G1 X15.407 Y165.038 E186.83961
G1 X14.962 Y164.593 E186.85235
G1 X14.803 Y164.208 E186.86079
G1 X14.803 Y15.792 E189.86818
G1 X14.939 Y15.462 E189.87541
G1 X15.317 Y15.644 F2700.000
G1 X15.644 Y15.317 E189.88477 F2700.000
G1 X15.875 Y15.222 E189.88984
G1 X164.125 Y15.222 E192.89385
G1 X164.356 Y15.317 E192.89892 F2700.000
G1 X164.683 Y15.644 E192.90828
G1 X164.778 Y15.875 E192.91334
G1 X164.778 Y164.125 E195.91736
G1 X164.683 Y164.356 E195.92242
G1 X164.356 Y164.683 E195.93179
G1 X164.125 Y164.778 E195.93685
G1 X15.875 Y164.778 E198.94087
G1 X15.644 Y164.683 E198.94593
G1 X15.317 Y164.356 E198.95530
G1 X15.222 Y164.125 E198.96036
G1 X15.222 Y15.875 E201.96437
G1 X15.294 Y15.700 E201.96822
G1 X15.672 Y15.881 F2700.000
G1 X15.881 Y15.672 E201.97421 F2700.000
G1 X15.958 Y15.641 E201.97590
G1 X164.042 Y15.641 E204.97654
G1 X164.119 Y15.672 E204.97822
G1 X164.328 Y15.881 E204.98421 F2700.000
G1 X164.359 Y15.958 E204.98590
G1 X164.359 Y164.042 E207.98654
G1 X164.328 Y164.119 E207.98823
G1 X164.119 Y164.328 E207.99421
G1 X164.042 Y164.359 E207.99590
G1 X15.958 Y164.359 E210.99654
G1 X15.881 Y164.328 E210.99823
G1 X15.672 Y164.119 E211.00421
G1 X15.641 Y164.042 E211.00590
G1 X15.649 Y15.937 E214.00698
G1 E212.00698 F2400.00000
G92 E0
G1 X89.224 Y155.656 F2700.000
G1 E2.00000 F2400.00000
G1 X89.577 Y155.544 E2.00750 F2700.000
G1 X89.987 Y155.499 E2.01585 F2700.000
G1 X90.358 Y155.531 E2.02339
G1 X90.766 Y155.650 E2.03201
G1 X91.137 Y155.853 E2.04058
G1 X91.414 Y156.085 E2.04790
G1 X91.645 Y156.361 E2.05520
G1 X91.850 Y156.734 E2.06381
G1 X91.969 Y157.142 E2.07242
G1 X92.001 Y157.511 E2.07992
G1 X91.956 Y157.920 E2.08826
G1 X91.845 Y158.275 E2.09580
G1 X91.647 Y158.637 E2.10416
G1 X91.415 Y158.914 E2.11149
G1 X91.139 Y159.145 E2.11878
G1 X90.766 Y159.350 E2.12739
G1 X90.361 Y159.468 E2.13595
G1 X89.990 Y159.501 E2.14350
G1 X89.578 Y159.456 E2.15190
G1 X89.225 Y159.345 E2.15940
G1 X88.863 Y159.147 E2.16775
G1 X88.586 Y158.915 E2.17507
G1 X88.355 Y158.639 E2.18237
G1 X88.150 Y158.266 E2.19098
G1 X88.031 Y157.858 E2.19959
G1 X88.000 Y157.500 E2.20687
G1 X88.031 Y157.142 E2.21416
G1 X88.150 Y156.734 E2.22276
G1 X88.353 Y156.363 E2.23133
G1 X88.585 Y156.086 E2.23866
G1 X88.861 Y155.855 E2.24595
G1 X89.172 Y155.684 E2.25313
G1 X89.373 Y156.052 F2700.000
G1 X89.664 Y155.956 E2.25933 F2700.000
G1 X89.992 Y155.920 E2.26601 F2700.000
G1 X90.280 Y155.945 E2.27188
G1 X90.605 Y156.040 E2.27873
G1 X90.899 Y156.201 E2.28553
G1 X91.117 Y156.383 E2.29128
G1 X91.298 Y156.599 E2.29699
G1 X91.460 Y156.895 E2.30384
G1 X91.555 Y157.219 E2.31068
G1 X91.580 Y157.506 E2.31651
G1 X91.544 Y157.834 E2.32319
G1 X91.458 Y158.110 E2.32906
G1 X91.299 Y158.399 E2.33574
G1 X91.117 Y158.617 E2.34149
G1 X90.901 Y158.798 E2.34720
G1 X90.605 Y158.960 E2.35404
G1 X90.283 Y159.054 E2.36085
G1 X89.994 Y159.080 E2.36672
G1 X89.664 Y159.044 E2.37344
G1 X89.390 Y158.957 E2.37928
G1 X89.101 Y158.799 E2.38595
G1 X88.883 Y158.617 E2.39170
G1 X88.702 Y158.401 E2.39741
G1 X88.540 Y158.105 E2.40426
G1 X88.445 Y157.781 E2.41110
G1 X88.421 Y157.500 E2.41681
G1 X88.445 Y157.219 E2.42252
G1 X88.540 Y156.895 E2.42936
G1 X88.701 Y156.601 E2.43616
G1 X88.883 Y156.383 E2.44191
G1 X89.099 Y156.202 E2.44762
G1 X89.321 Y156.081 E2.45274
G1 X89.502 Y156.411 F2700.000
G1 X89.742 Y156.327 E2.45687 F2700.000
G1 X89.996 Y156.299 E2.46102 F2700.000
G1 X90.211 Y156.318 E2.46452
G1 X90.460 Y156.390 E2.46873
G1 X90.686 Y156.514 E2.47291
G1 X90.849 Y156.651 E2.47637
G1 X90.985 Y156.813 E2.47981
G1 X91.110 Y157.040 E2.48402
G1 X91.182 Y157.289 E2.48823
G1 X91.201 Y157.502 E2.49170
G1 X91.173 Y157.756 E2.49584
G1 X91.109 Y157.961 E2.49934
G1 X90.986 Y158.186 E2.50349
G1 X90.849 Y158.349 E2.50695
G1 X90.687 Y158.485 E2.51039
G1 X90.460 Y158.610 E2.51460
G1 X90.212 Y158.682 E2.51878
G1 X89.998 Y158.701 E2.52227
G1 X89.742 Y158.673 E2.52645
G1 X89.538 Y158.609 E2.52992
G1 X89.314 Y158.486 E2.53407
G1 X89.151 Y158.349 E2.53753
G1 X89.015 Y158.187 E2.54096
G1 X88.890 Y157.960 E2.54517
G1 X88.818 Y157.711 E2.54938
G1 X88.799 Y157.500 E2.55282
G1 X88.818 Y157.289 E2.55625
G1 X88.890 Y157.040 E2.56046
G1 X89.014 Y156.814 E2.56464
G1 X89.151 Y156.651 E2.56811
G1 X89.313 Y156.515 E2.57154
G1 X89.449 Y156.440 E2.57407
G1 X89.535 Y156.159 F2700.000
G1 E0.57407 F2400.00000
G92 E0
G1 X24.500 Y157.500 F2700.000
G1 E2.00000 F2400.00000
G1 X24.469 Y157.858 E2.00729 F2700.000
G1 X24.350 Y158.266 E2.01590
G1 X24.145 Y158.639 E2.02451
G1 X23.914 Y158.914 E2.03179
G1 X23.639 Y159.145 E2.03908
G1 X23.266 Y159.350 E2.04769
G1 X22.858 Y159.469 E2.05630
G1 X22.500 Y159.500 E2.06359
G1 X22.142 Y159.469 E2.07087
G1 X21.734 Y159.350 E2.07948
G1 X21.363 Y159.147 E2.08804
G1 X21.086 Y158.915 E2.09537
G1 X20.855 Y158.639 E2.10267
G1 X20.650 Y158.266 E2.11128
G1 X20.531 Y157.858 E2.11989
G1 X20.500 Y157.500 E2.12717
G1 X20.531 Y157.142 E2.13446
G1 X20.650 Y156.734 E2.14307
G1 X20.855 Y156.361 E2.15168
G1 X21.086 Y156.086 E2.15897
G1 X21.361 Y155.855 E2.16625
G1 X21.724 Y155.656 E2.17464
G1 X22.077 Y155.544 E2.18214
G1 X22.487 Y155.499 E2.19049 F2700.000
G1 X22.858 Y155.531 E2.19803
G1 X23.266 Y155.650 E2.20665
G1 X23.637 Y155.853 E2.21522
G1 X23.914 Y156.085 E2.22254
G1 X24.145 Y156.361 E2.22984
G1 X24.350 Y156.734 E2.23845
G1 X24.469 Y157.142 E2.24706
G1 X24.495 Y157.440 E2.25313
G1 X24.077 Y157.477 F2700.000
G1 X24.055 Y157.781 E2.25930 F2700.000
G1 X23.960 Y158.105 E2.26615
G1 X23.798 Y158.401 E2.27299
G1 X23.617 Y158.617 E2.27870
G1 X23.401 Y158.798 E2.28441
G1 X23.105 Y158.960 E2.29125
G1 X22.781 Y159.055 E2.29810
G1 X22.500 Y159.079 E2.30381
G1 X22.219 Y159.055 E2.30951
G1 X21.895 Y158.960 E2.31635
G1 X21.601 Y158.799 E2.32316
G1 X21.383 Y158.617 E2.32890
G1 X21.202 Y158.401 E2.33462
G1 X21.040 Y158.105 E2.34146
G1 X20.945 Y157.781 E2.34831
G1 X20.921 Y157.500 E2.35402
G1 X20.945 Y157.219 E2.35972
G1 X21.040 Y156.895 E2.36657
G1 X21.202 Y156.599 E2.37341
G1 X21.383 Y156.383 E2.37912
G1 X21.599 Y156.202 E2.38483
G1 X21.890 Y156.043 E2.39154
G1 X22.164 Y155.956 E2.39738
G1 X22.492 Y155.920 E2.40405 F2700.000
G1 X22.780 Y155.945 E2.40993
G1 X23.105 Y156.040 E2.41677
G1 X23.399 Y156.201 E2.42358
G1 X23.617 Y156.383 E2.42932
G1 X23.798 Y156.599 E2.43504
G1 X23.960 Y156.895 E2.44188
G1 X24.055 Y157.219 E2.44873
G1 X24.072 Y157.417 E2.45275
G1 X23.696 Y157.450 F2700.000
G1 X23.682 Y157.711 E2.45699 F2700.000
G1 X23.610 Y157.960 E2.46120
G1 X23.485 Y158.187 E2.46541
G1 X23.349 Y158.349 E2.46884
G1 X23.187 Y158.485 E2.47228
G1 X22.960 Y158.610 E2.47649
G1 X22.711 Y158.682 E2.48070
G1 X22.500 Y158.701 E2.48413
G1 X22.289 Y158.682 E2.48757
G1 X22.040 Y158.610 E2.49177
G1 X21.814 Y158.486 E2.49596
G1 X21.651 Y158.349 E2.49942
G1 X21.515 Y158.187 E2.50285
G1 X21.390 Y157.960 E2.50706
G1 X21.318 Y157.711 E2.51127
G1 X21.299 Y157.500 E2.51471
G1 X21.318 Y157.289 E2.51814
G1 X21.390 Y157.040 E2.52235
G1 X21.515 Y156.813 E2.52656
G1 X21.651 Y156.651 E2.53000
G1 X21.813 Y156.515 E2.53343
G1 X22.038 Y156.391 E2.53761
G1 X22.242 Y156.327 E2.54108
G1 X22.496 Y156.299 E2.54522 F2700.000
G1 X22.711 Y156.318 E2.54872
G1 X22.960 Y156.390 E2.55293
G1 X23.186 Y156.514 E2.55711
G1 X23.349 Y156.651 E2.56057
G1 X23.485 Y156.813 E2.56401
G1 X23.610 Y157.040 E2.56822
G1 X23.682 Y157.289 E2.57243
G1 X23.691 Y157.390 E2.57407
