; generated by Slic3r 1.2.9 on 2020-01-10 at 23:14:14

; external perimeters extrusion width = 0.40mm
; perimeters extrusion width = 0.67mm
; infill extrusion width = 0.67mm
; solid infill extrusion width = 0.67mm
; top infill extrusion width = 0.67mm

M190 S60 ; set bed temperature
M104 S200 ; set temperature
G28 ; home all axes
G1 Z5 F5000 ; lift nozzle

M109 S200 ; wait for temperature to be reached
G21 ; set units to millimeters
G90 ; use absolute coordinates
M82 ; use absolute distances for extrusion
G92 E0
G1 Z0.300 F2700.000
G1 E-2.00000 F2400.00000
G92 E0
G1 X59.745 Y50.579 F2700.000
G1 E2.00000 F2400.00000
G1 X60.245 Y50.079 E2.01364 F2700.000
G1 X62.390 Y48.496 E2.06506
G1 X66.137 Y47.473 E2.13999
G1 X104.136 Y45.667 E2.87382
G1 X119.129 Y45.629 E3.16304
G1 X121.765 Y46.026 E3.21446
G1 X124.166 Y47.184 E3.26588 F2700.000
G1 X125.445 Y48.245 E3.29794
G1 X125.945 Y48.745 E3.31158
G1 X127.527 Y50.890 E3.36300
G1 X128.406 Y53.406 E3.41442
G1 X128.561 Y55.056 E3.44638
G1 X128.584 Y124.939 E4.79444
G1 X128.186 Y127.575 E4.84586
G1 X127.028 Y129.976 E4.89728
G1 X125.968 Y131.255 E4.92933
G1 X125.468 Y131.755 E4.94297
G1 X123.323 Y133.338 E4.99439
G1 X120.806 Y134.217 E5.04581
G1 X119.152 Y134.371 E5.07787
G1 X65.909 Y134.371 E6.10492
G1 X65.260 Y134.348 E6.11745
G1 X60.407 Y133.994 E6.21132
G1 X57.807 Y133.406 E6.26274
G1 X54.739 Y131.402 E6.33342
G1 X54.032 Y130.695 E6.35271
G1 X52.450 Y128.550 E6.40413
G1 X51.571 Y126.033 E6.45555
G1 X51.416 Y124.379 E6.48761
G1 X51.424 Y123.308 E6.50827
G1 X53.075 Y82.799 E7.29034
G1 X54.157 Y69.183 E7.55381
G1 X54.357 Y67.886 E7.57912
G1 X57.357 Y54.886 E7.83648
G1 X58.338 Y52.408 E7.88790
G1 X59.708 Y50.627 E7.93126
G1 X60.036 Y50.881 F2700.000
G1 X60.541 Y50.375 E7.94504 F2700.000
G1 X62.640 Y48.838 E7.99523
G1 X66.157 Y47.891 E8.06547
G1 X104.156 Y46.085 E8.79931
G1 X119.129 Y46.047 E9.08815
G1 X121.700 Y46.445 E9.13834
G1 X124.032 Y47.601 E9.18853 F2700.000
G1 X125.149 Y48.541 E9.21670
G1 X125.649 Y49.041 E9.23034
G1 X127.186 Y51.140 E9.28053
G1 X128.017 Y53.606 E9.33072
G1 X128.142 Y55.056 E9.35880
G1 X128.165 Y124.939 E10.70685
G1 X127.767 Y127.511 E10.75705
G1 X126.611 Y129.842 E10.80724
G1 X125.671 Y130.959 E10.83540
G1 X125.171 Y131.459 E10.84904
G1 X123.072 Y132.996 E10.89924
G1 X120.606 Y133.827 E10.94943
G1 X119.152 Y133.953 E10.97759
G1 X65.909 Y133.953 E12.00465
G1 X65.291 Y133.930 E12.01659
G1 X60.437 Y133.577 E12.11046
G1 X57.901 Y132.993 E12.16066
G1 X55.036 Y131.106 E12.22685
G1 X54.329 Y130.398 E12.24614
G1 X52.791 Y128.299 E12.29633
G1 X51.960 Y125.833 E12.34653
G1 X51.835 Y124.379 E12.37469
G1 X51.842 Y123.325 E12.39502
G1 X53.494 Y82.816 E13.17709
G1 X54.575 Y69.217 E13.44025
G1 X54.765 Y67.981 E13.46437
G1 X57.765 Y54.981 E13.72174
G1 X58.731 Y52.564 E13.77193
G1 X60.000 Y50.928 E13.81186
G1 X60.327 Y51.184 F2700.000
G1 X60.837 Y50.671 E13.82582 F2700.000
G1 X62.890 Y49.181 E13.87475
G1 X66.176 Y48.310 E13.94034
G1 X104.175 Y46.504 E14.67418
G1 X119.129 Y46.466 E14.96263
G1 X121.634 Y46.864 E15.01156
G1 X124.852 Y48.837 E15.08438 F2700.000
G1 X125.353 Y49.337 E15.09802
G1 X126.843 Y51.390 E15.14696
G1 X127.723 Y55.056 E15.21970
G1 X127.746 Y124.939 E16.56775
G1 X127.349 Y127.445 E16.61668
G1 X125.375 Y130.663 E16.68950
G1 X124.875 Y131.163 E16.70314
G1 X122.823 Y132.653 E16.75208
G1 X119.152 Y133.534 E16.82490
G1 X65.909 Y133.534 E17.85195
G1 X65.321 Y133.512 E17.86330
G1 X60.467 Y133.159 E17.95718
G1 X57.997 Y132.580 E18.00611
G1 X55.332 Y130.809 E18.06785
G1 X54.625 Y130.102 E18.08714
G1 X53.134 Y128.049 E18.13607
G1 X52.254 Y124.379 E18.20889
G1 X52.261 Y123.342 E18.22889
G1 X53.912 Y82.833 E19.01096
G1 X54.992 Y69.250 E19.27381
G1 X55.174 Y68.075 E19.29674
G1 X58.174 Y55.075 E19.55411
G1 X59.124 Y52.723 E19.60304
G1 X60.290 Y51.232 E19.63955
G1 X60.616 Y51.489 F2700.000
G1 X61.133 Y50.968 E19.65372 F2700.000
G1 X63.138 Y49.525 E19.70136
G1 X66.196 Y48.728 E19.76233
G1 X104.195 Y46.922 E20.49616
G1 X119.129 Y46.885 E20.78423
G1 X121.567 Y47.283 E20.83187
G1 X124.556 Y49.133 E20.89970 F2700.000
G1 X125.056 Y49.633 E20.91334
G1 X126.499 Y51.638 E20.96099
G1 X127.304 Y55.057 E21.02874
G1 X127.327 Y124.939 E22.37678
G1 X126.930 Y127.377 E22.42443
G1 X125.079 Y130.367 E22.49225
G1 X124.579 Y130.867 E22.50589
G1 X122.574 Y132.309 E22.55354
G1 X119.152 Y133.115 E22.62137
G1 X65.909 Y133.115 E23.64842
G1 X65.351 Y133.095 E23.65919
G1 X60.498 Y132.741 E23.75306
G1 X58.095 Y132.168 E23.80071
G1 X55.628 Y130.513 E23.85801
G1 X54.921 Y129.806 E23.87730
G1 X53.478 Y127.801 E23.92495
G1 X52.673 Y124.379 E23.99277
G1 X52.679 Y123.359 E24.01245
G1 X54.331 Y82.850 E24.79451
G1 X55.410 Y69.283 E25.05704
G1 X55.582 Y68.169 E25.07879
G1 X58.582 Y55.169 E25.33616
G1 X59.517 Y52.883 E25.38380
G1 X60.579 Y51.536 E25.41689
G1 X60.905 Y51.795 F2700.000
G1 X61.429 Y51.264 E25.43130 F2700.000
G1 X63.385 Y49.870 E25.47762
G1 X66.216 Y49.146 E25.53399
G1 X104.215 Y47.340 E26.26782
G1 X119.129 Y47.304 E26.55551
G1 X121.497 Y47.701 E26.60183
G1 X124.260 Y49.429 E26.66470 F2700.000
G1 X124.760 Y49.930 E26.67834
G1 X126.154 Y51.885 E26.72465
G1 X126.886 Y55.057 E26.78745
G1 X126.908 Y124.939 E28.13549
G1 X126.511 Y127.307 E28.18181
G1 X124.783 Y130.071 E28.24468
G1 X124.283 Y130.571 E28.25832
G1 X122.328 Y131.964 E28.30464
G1 X119.152 Y132.696 E28.36750
G1 X65.909 Y132.696 E29.39456
G1 X65.382 Y132.677 E29.40474
G1 X60.528 Y132.323 E29.49861
G1 X58.195 Y131.755 E29.54493
G1 X55.924 Y130.217 E29.59784
G1 X55.217 Y129.510 E29.61713
G1 X53.824 Y127.554 E29.66345
G1 X53.092 Y124.379 E29.72632
G1 X53.098 Y123.376 E29.74566
G1 X54.766 Y82.584 E30.53319
G1 X55.827 Y69.317 E30.78994
G1 X55.990 Y68.263 E30.81051
G1 X58.990 Y55.263 E31.06787
G1 X59.909 Y53.045 E31.11419
G1 X60.867 Y51.842 E31.14385
G1 X61.191 Y52.103 F2700.000
G1 X61.726 Y51.560 E31.15854 F2700.000
G1 X63.630 Y50.217 E31.20350
G1 X66.236 Y49.565 E31.25531
G1 X104.235 Y47.759 E31.98915
G1 X119.129 Y47.723 E32.27645
G1 X121.425 Y48.120 E32.32140
G1 X123.964 Y49.726 E32.37935 F2700.000
G1 X124.464 Y50.226 E32.39299
G1 X125.807 Y52.130 E32.43794
G1 X126.467 Y55.057 E32.49582
G1 X126.489 Y124.939 E33.84386
G1 X126.092 Y127.236 E33.88881
G1 X124.487 Y129.774 E33.94676
G1 X123.987 Y130.274 E33.96040
G1 X122.082 Y131.617 E34.00535
G1 X119.152 Y132.277 E34.06329
G1 X65.909 Y132.277 E35.09035
G1 X65.412 Y132.259 E35.09994
G1 X60.559 Y131.905 E35.19381
G1 X58.297 Y131.343 E35.23876
G1 X56.220 Y129.921 E35.28732
G1 X55.513 Y129.214 E35.30661
G1 X54.170 Y127.309 E35.35156
G1 X53.511 Y124.379 E35.40951
G1 X53.516 Y123.393 E35.42852
G1 X55.184 Y82.618 E36.21574
G1 X56.245 Y69.350 E36.47249
G1 X56.398 Y68.357 E36.49186
G1 X59.398 Y55.357 E36.74923
G1 X60.301 Y53.209 E36.79418
G1 X61.154 Y52.149 E36.82042
G1 X61.476 Y52.412 F2700.000
G1 X62.022 Y51.856 E36.83544 F2700.000
G1 X63.874 Y50.566 E36.87898
G1 X66.256 Y49.983 E36.92629
G1 X104.255 Y48.177 E37.66012
G1 X119.129 Y48.142 E37.94704
G1 X121.351 Y48.539 E37.99058
G1 X123.668 Y50.022 E38.04364 F2700.000
G1 X124.168 Y50.522 E38.05729
G1 X125.458 Y52.374 E38.10083
G1 X126.048 Y55.057 E38.15383
G1 X126.071 Y124.939 E39.50186
G1 X125.674 Y127.161 E39.54540
G1 X124.190 Y129.478 E39.59847
G1 X123.690 Y129.978 E39.61211
G1 X121.839 Y131.269 E39.65565
G1 X119.152 Y131.858 E39.70871
G1 X65.909 Y131.858 E40.73577
G1 X65.443 Y131.841 E40.74477
G1 X60.589 Y131.488 E40.83865
G1 X58.402 Y130.930 E40.88219
G1 X56.517 Y129.625 E40.92643
G1 X55.810 Y128.917 E40.94572
G1 X54.519 Y127.066 E40.98926
G1 X53.929 Y124.379 E41.04232
G1 X53.935 Y123.410 E41.06101
G1 X55.602 Y82.651 E41.84791
G1 X56.662 Y69.383 E42.10466
G1 X56.806 Y68.452 E42.12285
G1 X59.806 Y55.452 E42.38021
G1 X60.693 Y53.376 E42.42375
G1 X61.439 Y52.458 E42.44656
G1 E40.44656 F2400.00000
G92 E0
G1 X78.053 Y97.104 F2700.000
G1 E2.00000 F2400.00000
G1 X79.887 Y97.104 E2.02835 F2700.000
G1 X80.226 Y97.443 E2.03577
G1 X80.270 Y97.487 E2.03672 F2700.000
G1 X80.270 Y124.856 E2.45974
G1 X79.887 Y125.239 E2.46811
G1 X79.053 Y125.239 E2.48101
G1 X78.670 Y124.856 E2.48938
G1 X78.670 Y111.239 E2.69984
G1 X76.270 Y111.239 E2.73693
G1 X76.270 Y123.356 E2.92422
G1 X74.740 Y124.886 E2.95764
G1 X74.199 Y124.886 E2.96601
G1 X73.609 Y124.296 E2.97891
G1 X73.609 Y123.754 E2.98727
G1 X74.670 Y122.694 E3.01046
G1 X74.670 Y110.444 E3.19979
G1 X74.993 Y109.664 E3.21284
G1 X77.286 Y107.371 E3.26296
G1 X77.670 Y106.444 E3.27847
G1 X77.670 Y97.487 E3.41691
G1 X78.010 Y97.146 E3.42435
G1 X78.335 Y97.387 F2700.000
G1 X78.209 Y97.481 F2700.000
G1 X79.731 Y97.481 E3.45371 F2700.000
G1 X79.892 Y97.643 E3.45812
G1 X79.892 Y124.700 E3.98006 F2700.000
G1 X79.731 Y124.862 E3.98448
G1 X79.209 Y124.862 E3.99454
G1 X79.047 Y124.700 E3.99896
G1 X79.047 Y110.862 E4.26590
G1 X75.892 Y110.862 E4.32675
G1 X75.892 Y123.200 E4.56475
G1 X74.584 Y124.508 E4.60044
G1 X74.355 Y124.508 E4.60486
G1 X73.986 Y124.140 E4.61492
G1 X73.986 Y123.911 E4.61934
G1 X75.047 Y122.850 E4.64827
G1 X75.047 Y110.519 E4.88615
G1 X75.313 Y109.877 E4.89954
G1 X77.605 Y107.584 E4.96209
G1 X78.047 Y106.519 E4.98434
G1 X78.047 Y97.643 E5.15556
G1 X78.166 Y97.523 E5.15881
G1 E3.15881 F2400.00000
G92 E0
G1 X78.466 Y104.706 F2700.000
G1 E2.00000 F2400.00000
G1 X78.466 Y97.900 E2.13129 F2700.000
G1 X79.474 Y97.900 E2.15073
G1 X79.474 Y110.443 E2.39269
G1 X75.532 Y110.443 E2.46873 F2700.000
G1 X75.668 Y110.114 E2.47560
G1 X77.961 Y107.822 E2.53815
G1 X78.466 Y106.602 E2.56361
G1 X78.466 Y104.766 E2.59903
G1 X78.970 Y106.573 F2700.000
G1 X78.970 Y98.109 E2.95065 F2700.000
G1 E0.95065 F2400.00000
G92 E0
G1 X79.226 Y107.038 F2700.000
G1 E2.00000 F2400.00000
G1 X79.009 Y106.820 E2.00609 F2700.000
G1 X78.551 Y106.970 E2.01562
G1 X79.226 Y107.646 E2.03452
G1 X79.226 Y108.253 E2.04654
G1 X78.373 Y107.400 E2.07042
G1 X78.195 Y107.830 E2.07962
G1 X79.226 Y108.861 E2.10848
G1 X79.226 Y109.469 E2.12051
G1 X77.919 Y108.161 E2.15711
G1 X77.615 Y108.465 E2.16561
G1 X79.226 Y110.076 E2.21071
G1 X78.738 Y110.196 E2.22066
G1 X77.311 Y108.769 E2.26060
G1 X77.007 Y109.073 E2.26911
G1 X78.131 Y110.196 E2.30055
G1 X77.523 Y110.196 E2.31257
G1 X76.703 Y109.376 E2.33551
G1 X76.399 Y109.680 E2.34401
G1 X76.915 Y110.196 E2.35844
G1 X76.307 Y110.196 E2.37047
G1 X76.096 Y109.984 E2.37640
G1 X75.470 Y110.653 F2700.000
G1 X75.470 Y122.937 E2.88674 F2700.000
G1 X75.461 Y123.022 E2.89029
G1 X75.407 Y123.088 E2.89383
G1 X74.319 Y124.176 E2.95777
G1 E0.95777 F2400.00000
G92 E0
G1 X74.470 Y124.025 F2700.000
G1 X74.470 Y124.025 F2700.000
G1 X75.470 Y123.025 F2700.000
G1 X75.470 Y123.025 F2700.000
G1 X79.470 Y124.653 F2700.000
G1 E2.00000 F2400.00000
G1 X79.470 Y110.653 E2.58163 F2700.000
G1 E0.58163 F2400.00000
G92 E0
G1 X73.476 Y110.287 F2700.000
G1 X70.482 Y125.376 F2700.000
G1 X67.904 Y127.321 F2700.000
G1 X58.609 Y125.837 F2700.000
G1 X58.350 Y123.572 F2700.000
G1 X58.891 Y110.052 F2700.000
G1 X58.896 Y109.978 F2700.000
G1 X60.426 Y110.215 F2700.000
G1 X67.209 Y110.653 F2700.000
G1 E2.00000 F2400.00000
G1 X67.209 Y124.856 E2.21953 F2700.000
G1 X66.826 Y125.239 E2.22790
G1 X65.992 Y125.239 E2.24080
G1 X65.609 Y124.856 E2.24916
G1 X65.609 Y111.239 E2.45963
G1 X63.209 Y111.239 E2.49672
G1 X63.209 Y123.356 E2.68400
G1 X61.680 Y124.886 E2.71743
G1 X61.138 Y124.886 E2.72580
G1 X60.548 Y124.296 E2.73869
G1 X60.548 Y123.754 E2.74706
G1 X61.609 Y122.694 E2.77025
G1 X61.609 Y110.444 E2.95958
G1 X61.932 Y109.664 E2.97263
G1 X64.225 Y107.371 E3.02275
G1 X64.609 Y106.444 E3.03826
G1 X64.609 Y97.487 E3.17670
G1 X64.992 Y97.104 E3.18507
G1 X66.826 Y97.104 E3.21342
G1 X67.166 Y97.443 E3.22084
G1 X67.209 Y97.487 E3.22178 F2700.000
G1 X67.209 Y110.593 E3.42435
G1 X66.863 Y110.853 F2700.000
G1 X66.832 Y110.593 F2700.000
G1 X66.832 Y124.700 E3.69649 F2700.000
G1 X66.670 Y124.862 E3.70090
G1 X66.148 Y124.862 E3.71097
G1 X65.986 Y124.700 E3.71538
G1 X65.986 Y110.862 E3.98232
G1 X62.832 Y110.862 E4.04317
G1 X62.832 Y123.200 E4.28118
G1 X61.523 Y124.508 E4.31687
G1 X61.295 Y124.508 E4.32128
G1 X60.926 Y124.140 E4.33135
G1 X60.926 Y123.911 E4.33576
G1 X61.986 Y122.850 E4.36470
G1 X61.986 Y110.519 E4.60257
G1 X62.252 Y109.877 E4.61597
G1 X64.545 Y107.584 E4.67852
G1 X64.986 Y106.519 E4.70077
G1 X64.986 Y97.643 E4.87198
G1 X65.148 Y97.481 E4.87640
G1 X66.670 Y97.481 E4.90575
G1 X66.832 Y97.643 E4.91017
G1 X66.832 Y110.533 E5.15881 F2700.000
G1 E3.15881 F2400.00000
G92 E0
G1 X66.413 Y104.952 F2700.000
G1 E2.00000 F2400.00000
G1 X66.413 Y110.443 E2.10592 F2700.000
G1 X62.471 Y110.443 E2.18196 F2700.000
G1 X62.607 Y110.114 E2.18882
G1 X64.900 Y107.822 E2.25137
G1 X65.405 Y106.602 E2.27684
G1 X65.405 Y97.900 E2.44470
G1 X66.413 Y97.900 E2.46414
G1 X66.413 Y104.892 E2.59903
G1 X65.909 Y106.573 F2700.000
G1 X65.909 Y98.109 E2.95065 F2700.000
G1 E0.95065 F2400.00000
G92 E0
G1 X66.166 Y107.038 F2700.000
G1 E2.00000 F2400.00000
G1 X65.948 Y106.820 E2.00609 F2700.000
G1 X65.491 Y106.970 E2.01562
G1 X66.166 Y107.646 E2.03452
G1 X66.166 Y108.253 E2.04654
G1 X65.313 Y107.400 E2.07042
G1 X65.135 Y107.830 E2.07962
G1 X66.166 Y108.861 E2.10848
G1 X66.166 Y109.469 E2.12051
G1 X64.858 Y108.161 E2.15711
G1 X64.554 Y108.465 E2.16561
G1 X66.166 Y110.076 E2.21071
G1 X65.678 Y110.196 E2.22066
G1 X64.250 Y108.769 E2.26060
G1 X63.946 Y109.073 E2.26911
G1 X65.070 Y110.196 E2.30055
G1 X64.462 Y110.196 E2.31257
G1 X63.643 Y109.376 E2.33551
G1 X63.339 Y109.680 E2.34401
G1 X63.854 Y110.196 E2.35844
G1 X63.247 Y110.196 E2.37047
G1 X63.035 Y109.984 E2.37640
G1 X62.409 Y110.653 F2700.000
G1 X62.409 Y122.937 E2.88674 F2700.000
G1 X62.401 Y123.022 E2.89029
G1 X62.347 Y123.088 E2.89383
G1 X61.258 Y124.176 E2.95777
G1 E0.95777 F2400.00000
G92 E0
G1 X61.409 Y124.025 F2700.000
G1 X61.409 Y124.025 F2700.000
G1 X62.409 Y123.025 F2700.000
G1 X62.409 Y123.025 F2700.000
G1 X66.409 Y124.653 F2700.000
G1 E2.00000 F2400.00000
G1 X66.409 Y110.653 E2.58163 F2700.000
G1 E0.58163 F2400.00000
G92 E0
G1 X68.409 Y97.205 F2700.000
G1 X80.306 Y91.411 F2700.000
G1 X85.500 Y92.572 F2700.000
G1 X85.497 Y95.537 F2700.000
G1 X85.457 Y97.205 F2700.000
G1 X84.042 Y109.636 F2700.000
G1 X86.548 Y110.215 F2700.000
G1 X87.730 Y110.653 F2700.000
G1 E2.00000 F2400.00000
G1 X87.730 Y110.444 E2.00323 F2700.000
G1 X88.053 Y109.664 E2.01628
G1 X90.346 Y107.371 E2.06640
G1 X90.730 Y106.444 E2.08191
G1 X90.730 Y97.487 E2.22035
G1 X91.113 Y97.104 E2.22871
G1 X92.947 Y97.104 E2.25706
G1 X93.287 Y97.443 E2.26449
G1 X93.330 Y97.487 E2.26543 F2700.000
G1 X93.330 Y124.856 E2.68846
G1 X92.947 Y125.239 E2.69683
G1 X92.113 Y125.239 E2.70972
G1 X91.730 Y124.856 E2.71809
G1 X91.730 Y111.239 E2.92855
G1 X89.330 Y111.239 E2.96565
G1 X89.330 Y123.356 E3.15293
G1 X87.801 Y124.886 E3.18636
G1 X87.260 Y124.886 E3.19472
G1 X86.670 Y124.296 E3.20762
G1 X86.670 Y123.754 E3.21599
G1 X87.730 Y122.694 E3.23917
G1 X87.730 Y110.713 E3.42435
G1 X87.911 Y110.548 F2700.000
G1 X88.108 Y110.713 F2700.000
G1 X88.108 Y110.519 E3.42809 F2700.000
G1 X88.373 Y109.877 E3.44148
G1 X90.666 Y107.584 E3.50404
G1 X91.108 Y106.519 E3.52629
G1 X91.108 Y97.643 E3.69750
G1 X91.269 Y97.481 E3.70192
G1 X92.791 Y97.481 E3.73127
G1 X92.953 Y97.643 E3.73569
G1 X92.953 Y124.700 E4.25763 F2700.000
G1 X92.791 Y124.862 E4.26204
G1 X92.269 Y124.862 E4.27211
G1 X92.108 Y124.700 E4.27652
G1 X92.108 Y110.862 E4.54346
G1 X88.953 Y110.862 E4.60431
G1 X88.953 Y123.200 E4.84232
G1 X87.645 Y124.508 E4.87801
G1 X87.416 Y124.508 E4.88242
G1 X87.047 Y124.140 E4.89249
G1 X87.047 Y123.911 E4.89690
G1 X88.108 Y122.850 E4.92584
G1 X88.108 Y110.773 E5.15881
G1 E3.15881 F2400.00000
G92 E0
G1 X91.526 Y106.522 F2700.000
G1 E2.00000 F2400.00000
G1 X91.526 Y97.900 E2.16633 F2700.000
G1 X92.534 Y97.900 E2.18577
G1 X92.534 Y110.443 E2.42773
G1 X88.592 Y110.443 E2.50377 F2700.000
G1 X88.728 Y110.114 E2.51063
G1 X91.021 Y107.822 E2.57318
G1 X91.526 Y106.582 E2.59900
G1 X92.030 Y106.573 F2700.000
G1 X92.030 Y98.109 E2.95062 F2700.000
G1 E0.95062 F2400.00000
G92 E0
G1 X92.287 Y107.038 F2700.000
G1 E2.00000 F2400.00000
G1 X92.069 Y106.820 E2.00609 F2700.000
G1 X91.612 Y106.970 E2.01562
G1 X92.287 Y107.646 E2.03452
G1 X92.287 Y108.253 E2.04654
G1 X91.434 Y107.400 E2.07042
G1 X91.256 Y107.830 E2.07962
