; generated by Slic3r 1.2.9 on 2020-01-10 at 22:40:48

; external perimeters extrusion width = 0.40mm
; perimeters extrusion width = 0.67mm
; infill extrusion width = 0.67mm
; solid infill extrusion width = 0.67mm
; top infill extrusion width = 0.67mm

M190 S60 ; set bed temperature
M104 S200 ; set temperature
G28 ; home all axes
G1 Z5 F5000 ; lift nozzle

M109 S200 ; wait for temperature to be reached
G21 ; set units to millimeters
G90 ; use absolute coordinates
M82 ; use absolute distances for extrusion
G92 E0
M106 S147.9
G1 Z0.300 F2700.000
G1 E-2.00000 F2400.00000
G92 E0
G1 X84.671 Y72.317 F2700.000
G1 E2.00000 F2400.00000
G1 X87.115 Y69.873 E2.06668 F2700.000
G1 X89.656 Y68.821 E2.11972
G1 X94.405 Y68.821 E2.21134
G1 X96.945 Y69.873 E2.26438
G1 X99.390 Y72.317 E2.33106 F2700.000
G1 X100.442 Y74.857 E2.38410
G1 X100.442 Y105.143 E2.96830
G1 X99.390 Y107.683 E3.02134
G1 X96.945 Y110.127 E3.08802
G1 X94.405 Y111.179 E3.14106
G1 X90.656 Y111.179 E3.21339
G1 X89.614 Y110.748 E3.23514
G1 X89.447 Y110.748 E3.23836
G1 X89.259 Y110.826 E3.24229
G1 X85.802 Y110.826 E3.30897
G1 X83.262 Y109.773 E3.36201
G1 X80.610 Y107.122 E3.43434
G1 X79.558 Y104.582 E3.48738
G1 X79.558 Y101.125 E3.55406
G1 X80.603 Y98.603 E3.60671
G1 X80.619 Y98.522 E3.60830
G1 X80.619 Y88.552 E3.80065
G1 X80.884 Y87.216 E3.82691
G1 X81.759 Y85.105 E3.87099
G1 X82.515 Y83.973 E3.89725
G1 X83.555 Y82.933 E3.92562
G1 X83.619 Y82.779 E3.92883
G1 X83.619 Y74.857 E4.08164
G1 X84.648 Y72.373 E4.13353
G1 X85.026 Y72.554 F2700.000
G1 X87.353 Y70.228 E4.19699 F2700.000
G1 X89.739 Y69.240 E4.24682
G1 X94.322 Y69.240 E4.33522
G1 X96.708 Y70.228 E4.38505 F2700.000
G1 X98.019 Y71.539 E4.42082
G1 X99.035 Y72.554 E4.44851
G1 X100.023 Y74.941 E4.49834
G1 X100.023 Y105.059 E5.07933
G1 X99.035 Y107.446 E5.12915
G1 X96.708 Y109.772 E5.19261
G1 X94.322 Y110.760 E5.24244
G1 X90.739 Y110.760 E5.31156
G1 X89.614 Y110.294 E5.33505
G1 X89.447 Y110.294 E5.33826
G1 X89.175 Y110.407 E5.34394
G1 X85.885 Y110.407 E5.40740
G1 X83.499 Y109.418 E5.45723
G1 X80.965 Y106.885 E5.52634
G1 X79.977 Y104.499 E5.57617
G1 X79.977 Y101.209 E5.63963
G1 X81.038 Y98.660 E5.69288
G1 X81.038 Y88.593 E5.88708
G1 X81.287 Y87.338 E5.91175
G1 X82.130 Y85.303 E5.95424
G1 X82.841 Y84.240 E5.97891
G1 X83.974 Y83.107 E6.00983
G1 X84.038 Y82.953 E6.01304
G1 X84.038 Y74.941 E6.16759
G1 X85.003 Y72.610 E6.21626
G1 X85.381 Y72.792 F2700.000
G1 X87.590 Y70.583 E6.27651 F2700.000
G1 X89.822 Y69.658 E6.32312
G1 X94.238 Y69.658 E6.40831
G1 X96.471 Y70.583 E6.45492
G1 X98.679 Y72.792 E6.51517 F2700.000
G1 X99.604 Y75.024 E6.56178
G1 X99.604 Y104.976 E7.13956
G1 X98.679 Y107.208 E7.18617
G1 X96.471 Y109.417 E7.24642
G1 X94.238 Y110.342 E7.29303
G1 X90.822 Y110.342 E7.35893
G1 X89.614 Y109.841 E7.38416
G1 X89.447 Y109.841 E7.38738
G1 X89.092 Y109.988 E7.39479
G1 X85.969 Y109.988 E7.45504
G1 X83.736 Y109.063 E7.50165
G1 X81.321 Y106.648 E7.56755
G1 X80.396 Y104.415 E7.61416
G1 X80.396 Y101.292 E7.67441
G1 X81.321 Y99.060 E7.72102
G1 X81.393 Y98.987 E7.72299
G1 X81.457 Y98.833 E7.72621
G1 X81.457 Y88.634 E7.92295
G1 X81.690 Y87.461 E7.94603
G1 X82.501 Y85.502 E7.98693
G1 X83.166 Y84.507 E8.01001
G1 X84.393 Y83.280 E8.04348
G1 X84.457 Y83.126 E8.04669
G1 X84.457 Y75.024 E8.20298
G1 X85.358 Y72.847 E8.24844
G1 X85.736 Y73.029 F2700.000
G1 X87.827 Y70.938 E8.30547 F2700.000
G1 X89.906 Y70.077 E8.34887
G1 X94.155 Y70.077 E8.43085
G1 X96.234 Y70.938 E8.47424 F2700.000
G1 X97.427 Y72.132 E8.50680
G1 X98.324 Y73.029 E8.53128
G1 X99.185 Y75.107 E8.57467
G1 X99.185 Y104.893 E9.14923
G1 X98.324 Y106.971 E9.19263
G1 X96.234 Y109.062 E9.24967
G1 X94.155 Y109.923 E9.29306
G1 X90.906 Y109.923 E9.35575
G1 X89.614 Y109.388 E9.38272
G1 X89.447 Y109.388 E9.38594
G1 X89.009 Y109.569 E9.39509
G1 X86.052 Y109.569 E9.45212
G1 X83.974 Y108.708 E9.49552
G1 X81.676 Y106.410 E9.55821
G1 X80.815 Y104.332 E9.60160
G1 X80.815 Y101.375 E9.65864
G1 X81.676 Y99.297 E9.70203
G1 X81.812 Y99.161 E9.70574
G1 X81.875 Y99.007 E9.70896
G1 X81.875 Y88.675 E9.90825
G1 X82.093 Y87.583 E9.92974
G1 X82.873 Y85.700 E9.96905
G1 X83.491 Y84.774 E9.99054
G1 X84.812 Y83.454 E10.02656
G1 X84.875 Y83.300 E10.02977
G1 X84.875 Y75.107 E10.18780
G1 X85.713 Y73.084 E10.23004
G1 X86.091 Y73.266 F2700.000
G1 X88.064 Y71.293 E10.28386 F2700.000
G1 X89.989 Y70.496 E10.32404
G1 X94.072 Y70.496 E10.40280
G1 X95.996 Y71.293 E10.44299
G1 X97.969 Y73.266 E10.49681 F2700.000
G1 X98.766 Y75.191 E10.53699
G1 X98.766 Y104.809 E11.10833
G1 X97.969 Y106.734 E11.14852
G1 X95.996 Y108.707 E11.20234
G1 X94.072 Y109.504 E11.24252
G1 X90.989 Y109.504 E11.30199
G1 X89.614 Y108.934 E11.33070
G1 X89.447 Y108.934 E11.33392
G1 X88.925 Y109.150 E11.34481
G1 X86.135 Y109.150 E11.39863
G1 X84.211 Y108.353 E11.43881
G1 X82.031 Y106.173 E11.49828
G1 X81.234 Y104.249 E11.53846
G1 X81.234 Y101.458 E11.59229
G1 X82.031 Y99.534 E11.63247
G1 X82.231 Y99.334 E11.63792
G1 X82.294 Y99.180 E11.64113
G1 X82.294 Y88.717 E11.84298
G1 X82.496 Y87.705 E11.86288
G1 X83.244 Y85.899 E11.90059
G1 X83.817 Y85.041 E11.92049
G1 X85.231 Y83.627 E11.95906
G1 X85.294 Y83.473 E11.96227
G1 X85.294 Y75.191 E12.12204
G1 X86.069 Y73.322 E12.16107
G1 X86.447 Y73.504 F2700.000
G1 X88.302 Y71.648 E12.21167 F2700.000
G1 X90.072 Y70.915 E12.24864
G1 X93.989 Y70.915 E12.32419
G1 X95.759 Y71.648 E12.36115 F2700.000
G1 X96.835 Y72.724 E12.39050
G1 X97.614 Y73.504 E12.41176
G1 X98.347 Y75.274 E12.44873
G1 X98.347 Y104.726 E13.01686
G1 X97.614 Y106.496 E13.05383
G1 X95.759 Y108.351 E13.10443
G1 X93.989 Y109.085 E13.14140
G1 X91.072 Y109.085 E13.19766
G1 X89.614 Y108.481 E13.22811
G1 X89.447 Y108.481 E13.23132
G1 X88.842 Y108.731 E13.24395
G1 X86.219 Y108.731 E13.29456
G1 X84.448 Y107.998 E13.33153
G1 X82.386 Y105.936 E13.38779
G1 X81.653 Y104.165 E13.42475
G1 X81.653 Y101.542 E13.47536
G1 X82.386 Y99.771 E13.51233
G1 X82.649 Y99.508 E13.51952
G1 X82.713 Y99.354 E13.52273
G1 X82.713 Y88.758 E13.72713
G1 X82.898 Y87.827 E13.74543
G1 X83.615 Y86.097 E13.78156
G1 X84.142 Y85.308 E13.79986
G1 X85.649 Y83.801 E13.84098
G1 X85.713 Y83.647 E13.84420
G1 X85.713 Y75.274 E14.00571
G1 X86.424 Y73.559 E14.04152
G1 X86.802 Y73.741 F2700.000
G1 X88.539 Y72.004 E14.08891 F2700.000
G1 X90.155 Y71.334 E14.12266
G1 X93.905 Y71.334 E14.19499
G1 X95.522 Y72.004 E14.22875
G1 X97.259 Y73.741 E14.27614 F2700.000
G1 X97.929 Y75.357 E14.30989
G1 X97.929 Y104.643 E14.87481
G1 X97.259 Y106.259 E14.90856
G1 X95.522 Y107.996 E14.95595
G1 X93.905 Y108.666 E14.98970
G1 X91.155 Y108.666 E15.04275
G1 X89.614 Y108.027 E15.07494
G1 X89.447 Y108.027 E15.07815
G1 X88.759 Y108.312 E15.09252
G1 X86.302 Y108.312 E15.13992
G1 X84.685 Y107.643 E15.17367
G1 X82.741 Y105.698 E15.22671
G1 X82.071 Y104.082 E15.26047
G1 X82.071 Y101.625 E15.30786
G1 X82.741 Y100.009 E15.34161
G1 X83.068 Y99.681 E15.35054
G1 X83.132 Y99.527 E15.35375
G1 X83.132 Y88.799 E15.56070
G1 X83.301 Y87.949 E15.57742
G1 X83.986 Y86.295 E15.61195
G1 X84.468 Y85.575 E15.62866
G1 X86.068 Y83.974 E15.67233
G1 X86.132 Y83.820 E15.67555
G1 X86.132 Y75.357 E15.83880
G1 X86.779 Y73.796 E15.87139
G1 X87.157 Y73.978 F2700.000
G1 X88.776 Y72.359 E15.91557 F2700.000
G1 X90.239 Y71.753 E15.94611
G1 X93.822 Y71.753 E16.01523
G1 X95.284 Y72.359 E16.04576 F2700.000
G1 X96.242 Y73.317 E16.07189
G1 X96.904 Y73.978 E16.08994
G1 X97.510 Y75.441 E16.12048
G1 X97.510 Y104.559 E16.68218
G1 X96.904 Y106.022 E16.71272
G1 X95.284 Y107.641 E16.75690
G1 X93.822 Y108.247 E16.78744
G1 X91.239 Y108.247 E16.83726
G1 X89.776 Y107.641 E16.86780
G1 X89.740 Y107.605 E16.86878
G1 X89.491 Y107.556 E16.87368
G1 X88.675 Y107.894 E16.89071
G1 X86.385 Y107.894 E16.93489
G1 X84.923 Y107.288 E16.96543
G1 X83.096 Y105.461 E17.01526
G1 X82.490 Y103.999 E17.04580
G1 X82.490 Y101.708 E17.08997
G1 X83.096 Y100.246 E17.12051
G1 X83.487 Y99.855 E17.13118
G1 X83.551 Y99.701 E17.13439
G1 X83.551 Y88.840 E17.34390
G1 X83.704 Y88.072 E17.35902
G1 X84.357 Y86.494 E17.39196
G1 X84.793 Y85.842 E17.40708
G1 X86.487 Y84.148 E17.45330
G1 X86.551 Y83.994 E17.45652
G1 X86.551 Y75.441 E17.62150
G1 X87.134 Y74.034 E17.65089
G1 X87.512 Y74.215 F2700.000
G1 X89.013 Y72.714 E17.69185 F2700.000
G1 X90.322 Y72.172 E17.71917
G1 X93.739 Y72.172 E17.78508
G1 X95.047 Y72.714 E17.81240
G1 X96.549 Y74.215 E17.85336 F2700.000
G1 X97.091 Y75.524 E17.88069
G1 X97.091 Y104.476 E18.43917
G1 X96.549 Y105.785 E18.46650
G1 X95.047 Y107.286 E18.50746
G1 X93.739 Y107.828 E18.53478
G1 X91.322 Y107.828 E18.58140
G1 X90.013 Y107.286 E18.60872
G1 X89.839 Y107.111 E18.61349
G1 X89.589 Y107.062 E18.61840
G1 X88.592 Y107.475 E18.63922
G1 X86.469 Y107.475 E18.68018
G1 X85.160 Y106.933 E18.70750
G1 X83.451 Y105.224 E18.75412
G1 X82.909 Y103.915 E18.78144
G1 X82.909 Y101.792 E18.82240
G1 X83.451 Y100.483 E18.84973
G1 X83.906 Y100.028 E18.86214
G1 X83.970 Y99.874 E18.86535
G1 X83.970 Y88.882 E19.07740
G1 X84.107 Y88.194 E19.09093
G1 X84.729 Y86.692 E19.12228
G1 X85.118 Y86.109 E19.13581
G1 X86.906 Y84.321 E19.18458
G1 X86.970 Y84.167 E19.18780
G1 X86.970 Y75.524 E19.35453
G1 X87.489 Y74.271 E19.38069
G1 X87.867 Y74.453 F2700.000
G1 X89.251 Y73.069 E19.41844 F2700.000
G1 X90.405 Y72.591 E19.44255
G1 X93.655 Y72.591 E19.50524
G1 X94.810 Y73.069 E19.52935 F2700.000
G1 X95.650 Y73.909 E19.55226
G1 X96.194 Y74.453 E19.56710
G1 X96.672 Y75.607 E19.59121
G1 X96.672 Y104.393 E20.14648
G1 X96.194 Y105.547 E20.17059
G1 X94.810 Y106.931 E20.20834
G1 X93.655 Y107.409 E20.23245
G1 X91.405 Y107.409 E20.27585
G1 X90.251 Y106.931 E20.29995
G1 X89.937 Y106.617 E20.30852
G1 X89.688 Y106.568 E20.31342
G1 X88.509 Y107.056 E20.33803
G1 X86.552 Y107.056 E20.37578
G1 X85.397 Y106.578 E20.39989
G1 X83.806 Y104.987 E20.44329
G1 X83.328 Y103.832 E20.46740
G1 X83.328 Y101.875 E20.50515
G1 X83.806 Y100.720 E20.52926
G1 X84.325 Y100.202 E20.54340
G1 X84.389 Y100.048 E20.54662
G1 X84.389 Y88.923 E20.76122
G1 X84.509 Y88.316 E20.77316
G1 X85.100 Y86.891 E20.80292
G1 X85.444 Y86.376 E20.81486
G1 X87.325 Y84.495 E20.86618
G1 X87.389 Y84.341 E20.86939
G1 X87.389 Y75.607 E21.03786
G1 X87.844 Y74.508 E21.06082
G1 X88.222 Y74.690 F2700.000
G1 X89.488 Y73.424 E21.09535 F2700.000
G1 X90.489 Y73.010 E21.11624
G1 X93.572 Y73.010 E21.17572
G1 X94.573 Y73.424 E21.19661
G1 X95.839 Y74.690 E21.23115 F2700.000
G1 X96.253 Y75.691 E21.25204
G1 X96.253 Y104.309 E21.80410
G1 X95.839 Y105.310 E21.82499
G1 X94.573 Y106.576 E21.85953
G1 X93.572 Y106.990 E21.88042
G1 X91.489 Y106.990 E21.92061
G1 X90.488 Y106.576 E21.94150
G1 X89.954 Y106.042 E21.95608
G1 X89.607 Y106.042 E21.96277
G1 X89.426 Y106.222 E21.96770
G1 X88.425 Y106.637 E21.98859
G1 X86.635 Y106.637 E22.02313
G1 X85.634 Y106.222 E22.04402
G1 X84.161 Y104.749 E22.08421
G1 X83.747 Y103.749 E22.10510
G1 X83.747 Y101.958 E22.13963
G1 X84.161 Y100.958 E22.16053
G1 X84.744 Y100.375 E22.17642
G1 X84.808 Y100.221 E22.17963
G1 X84.808 Y88.964 E22.39679
G1 X84.912 Y88.438 E22.40713
G1 X85.074 Y88.047 E22.41529
G1 X85.471 Y87.089 E22.43530
G1 X85.769 Y86.643 E22.44564
G1 X87.744 Y84.668 E22.49952
G1 X87.808 Y84.514 E22.50273
G1 X87.808 Y75.691 E22.67294
G1 X88.199 Y74.745 E22.69268
G1 X88.577 Y74.927 F2700.000
G1 X89.725 Y73.779 E22.72400 F2700.000
G1 X90.572 Y73.428 E22.74168
G1 X93.489 Y73.428 E22.79794
G1 X94.335 Y73.779 E22.81562 F2700.000
G1 X95.057 Y74.501 E22.83532
G1 X95.483 Y74.927 E22.84694
G1 X95.834 Y75.774 E22.86462
G1 X95.834 Y104.226 E23.41346
G1 X95.483 Y105.073 E23.43114
G1 X94.335 Y106.221 E23.46246
G1 X93.489 Y106.572 E23.48014
G1 X91.572 Y106.572 E23.51711
G1 X90.725 Y106.221 E23.53479
G1 X89.954 Y105.449 E23.55584
G1 X89.607 Y105.449 E23.56253
G1 X89.189 Y105.867 E23.57393
G1 X88.342 Y106.218 E23.59161
G1 X86.719 Y106.218 E23.62293
G1 X85.872 Y105.867 E23.64061
G1 X84.517 Y104.512 E23.67758
G1 X84.166 Y103.665 E23.69526
G1 X84.166 Y102.042 E23.72658
G1 X84.517 Y101.195 E23.74426
G1 X85.163 Y100.549 E23.76189
G1 X85.226 Y100.395 E23.76510
G1 X85.226 Y89.005 E23.98481
G1 X85.315 Y88.560 E23.99356
G1 X85.461 Y88.208 E24.00092
G1 X85.842 Y87.287 E24.02014
G1 X86.094 Y86.910 E24.02889
G1 X88.163 Y84.842 E24.08532
G1 X88.226 Y84.688 E24.08853
G1 X88.226 Y75.774 E24.26048
G1 X88.554 Y74.983 E24.27700
G1 X88.932 Y75.164 F2700.000
G1 X89.963 Y74.134 E24.30511 F2700.000
G1 X90.655 Y73.847 E24.31957
G1 X93.405 Y73.847 E24.37262
G1 X94.098 Y74.134 E24.38709
G1 X95.128 Y75.164 E24.41519 F2700.000
G1 X95.415 Y75.857 E24.42966
G1 X95.415 Y104.143 E24.97529
G1 X95.128 Y104.836 E24.98975
G1 X94.098 Y105.866 E25.01786
G1 X93.405 Y106.153 E25.03232
G1 X91.655 Y106.153 E25.06608
G1 X90.963 Y105.866 E25.08054
G1 X89.954 Y104.857 E25.10806
G1 X89.607 Y104.857 E25.11476
G1 X88.952 Y105.512 E25.13263
G1 X88.259 Y105.799 E25.14709
G1 X86.802 Y105.799 E25.17520
G1 X86.109 Y105.512 E25.18967
G1 X84.872 Y104.275 E25.22342
G1 X84.585 Y103.582 E25.23789
G1 X84.585 Y102.125 E25.26599
G1 X84.872 Y101.432 E25.28046
G1 X85.582 Y100.722 E25.29982
G1 X85.645 Y100.568 E25.30304
G1 X85.645 Y89.047 E25.52530
G1 X85.718 Y88.682 E25.53246
G1 X86.213 Y87.486 E25.55744
G1 X86.420 Y87.177 E25.56460
G1 X88.549 Y85.048 E25.62269
G1 X88.595 Y84.979 E25.62428
G1 X88.645 Y84.815 E25.62759
G1 X88.645 Y75.857 E25.80039
G1 X88.909 Y75.220 E25.81370
G1 X89.287 Y75.402 F2700.000
G1 X90.200 Y74.489 E25.83859 F2700.000
G1 X90.739 Y74.266 E25.84984
G1 X93.322 Y74.266 E25.89967
G1 X93.861 Y74.489 E25.91093 F2700.000
G1 X94.465 Y75.094 E25.92741
G1 X94.773 Y75.402 E25.93582
G1 X94.996 Y75.941 E25.94707
G1 X94.996 Y104.059 E26.48948
G1 X94.773 Y104.598 E26.50073
G1 X93.861 Y105.511 E26.52562
G1 X93.322 Y105.734 E26.53687
G1 X91.739 Y105.734 E26.56742
G1 X91.200 Y105.511 E26.57867
G1 X90.287 Y104.598 E26.60356
G1 X90.145 Y104.253 E26.61076
G1 X89.705 Y104.166 E26.61940
G1 X88.714 Y105.157 E26.64643
G1 X88.176 Y105.380 E26.65768
G1 X86.885 Y105.380 E26.68257
G1 X86.346 Y105.157 E26.69382
G1 X85.227 Y104.038 E26.72437
G1 X85.004 Y103.499 E26.73562
G1 X85.004 Y102.208 E26.76051
G1 X85.227 Y101.670 E26.77176
G1 X86.000 Y100.896 E26.79286
G1 X86.064 Y100.742 E26.79608
G1 X86.064 Y89.088 E27.02089
G1 X86.121 Y88.805 E27.02646
G1 X86.585 Y87.684 E27.04985
G1 X86.745 Y87.444 E27.05542
G1 X88.904 Y85.285 E27.11432
G1 X88.950 Y85.216 E27.11591
G1 X89.064 Y84.899 E27.12243
G1 X89.064 Y75.941 E27.29523
G1 X89.264 Y75.457 E27.30532
G1 X89.643 Y75.639 F2700.000
G1 X90.437 Y74.844 E27.32700 F2700.000
G1 X90.822 Y74.685 E27.33504
G1 X93.239 Y74.685 E27.38165
G1 X93.624 Y74.844 E27.38969
G1 X94.418 Y75.639 E27.41136 F2700.000
G1 X94.578 Y76.024 E27.41940
G1 X94.578 Y103.976 E27.95860
G1 X94.418 Y104.361 E27.96664
G1 X93.624 Y105.156 E27.98831
G1 X93.239 Y105.315 E27.99635
G1 X91.822 Y105.315 E28.02368
G1 X91.437 Y105.156 E28.03171
G1 X90.643 Y104.361 E28.05339
G1 X90.483 Y103.976 E28.06143
G1 X90.483 Y103.527 E28.07008
G1 X89.966 Y103.313 E28.08088
G1 X88.477 Y104.802 E28.12150
G1 X88.092 Y104.961 E28.12953
G1 X86.968 Y104.961 E28.15121
G1 X86.584 Y104.802 E28.15925
G1 X85.582 Y103.800 E28.18657
G1 X85.422 Y103.415 E28.19461
G1 X85.422 Y102.292 E28.21629
G1 X85.582 Y101.907 E28.22432
G1 X86.419 Y101.069 E28.24717
G1 X86.483 Y100.915 E28.25038
G1 X86.483 Y89.129 E28.47774
G1 X86.523 Y88.927 E28.48172
G1 X86.956 Y87.883 E28.50352
G1 X87.070 Y87.711 E28.50750
G1 X89.259 Y85.522 E28.56721
G1 X89.305 Y85.454 E28.56880
G1 X89.467 Y85.063 E28.57697
G1 X89.483 Y84.982 E28.57856
G1 X89.483 Y76.024 E28.75136
G1 X89.620 Y75.694 E28.75824
G1 X89.998 Y75.876 F2700.000
G1 X90.674 Y75.200 E28.77670 F2700.000
G1 X90.905 Y75.104 E28.78152
G1 X93.155 Y75.104 E28.82492
G1 X93.386 Y75.200 E28.82974 F2700.000
G1 X93.873 Y75.686 E28.84302
G1 X94.063 Y75.876 E28.84821
G1 X94.159 Y76.107 E28.85303
G1 X94.159 Y103.893 E29.38901
G1 X94.063 Y104.124 E29.39384
G1 X93.386 Y104.800 E29.41230
G1 X93.155 Y104.896 E29.41712
G1 X91.905 Y104.896 E29.44123
G1 X91.674 Y104.800 E29.44605
G1 X90.998 Y104.124 E29.46452
G1 X90.902 Y103.893 E29.46934
G1 X90.902 Y102.360 E29.49890
G1 X90.228 Y102.226 E29.51216
G1 X90.063 Y102.624 E29.52046
G1 X88.240 Y104.447 E29.57020
G1 X88.009 Y104.543 E29.57502
G1 X87.052 Y104.543 E29.59349
G1 X86.821 Y104.447 E29.59831
G1 X85.937 Y103.563 E29.62242
